!!!!SEGMENT: pl-cz--iii-694--005_volckmer-augusti--litaniae-lauretanae-g-ag-dei.krn
!!!cenid: 17xx:1122
!!!COM: Volckmer, Augustin
!!!COM-rismID:
!!!CDT: 1755-~1820
!!!CNT:
!!!OPR: Litaniae Lauretanae G
!!!OTL: Agnus Dei
!!!OMV: 005
!!!PDT:
!!!AGN: Sacred; Mass
!!!SMS-siglum: PL-CZ
!!!SMS-shelfmark: III-694
!!!SMS-shelfwork: 001-005 M
!!!SMS-variant:
!!!SMS-altvar:
!!!NIFC-rismSourceID: 300001384
!!!NIFC-islandoraID: pl-cz:40495
!!!URL-pdf-islandora: https://repozytorium.nifc.pl/islandora/object/pl-cz%3A40495/datastream/PDF/view
!!!URL-scan:
!!!ONB-nifc: UWAGA: części Litanii: Kyrie, Mater Christi, Salus infirmorum, Regina angelorum, Agnus Dei
!!!Key: G
!!!AIN: 1 alto 1 bass 2 clars 2 corno 1 organ 1 soprn 1 tenor 1 viola 2 violn
!!!key:
**kern	**fba	**dynam	**kern	**dynam	**kern	**dynam	**kern	**dynam	**kern	**text	**text	**dynam	**kern	**text	**text	**dynam	**kern	**text	**text	**kern	**text	**text	**kern	**dynam	**kern	**dynam	**kern	**dynam	**kern	**dynam
*part12	*	*part12	*part11	*part11	*part10	*part10	*part9	*part9	*part8	*part8	*part8	*part8	*part7	*part7	*part7	*part7	*part6	*part6	*part6	*part5	*part5	*part5	*part4	*part4	*part3	*part3	*part2	*part2	*part1	*part1
*staff12	*	*	*staff11	*	*staff10	*	*staff9	*	*staff8	*staff8	*staff8	*	*staff7	*staff7	*staff7	*	*staff6	*staff6	*staff6	*staff5	*staff5	*staff5	*staff4	*	*staff3	*	*staff2	*	*staff1	*
*I"Organo	*	*	*I"Viola obl:	*	*I"Violino Secundo.	*	*I"Violino Primo	*	*I"Baſso.	*	*	*	*I"Tenore.	*	*	*	*I"Alto	*	*	*I"Canto	*	*	*I"Corno Secundo in G.	*	*I"Corno Primo in G.	*	*I"Clarinetto Secundo. C Clarn:	*	*I"Clarinetto Primo. C Clarn	*
*I'Organo	*	*	*I'Viola obl:	*	*I'Violino Secundo.	*	*I'Violino Primo	*	*I'Baſso.	*	*	*	*I'Tenore.	*	*	*	*I'Alto	*	*	*I'Canto	*	*	*I'Corno Secundo in G.	*	*I'Corno Primo in G.	*	*I'Clarinetto Secundo. C Clarn:	*	*I'Clarinetto Primo. C Clarn	*
*Iorgan	*	*	*Iviola	*	*Ivioln	*	*Ivioln	*	*Ibass	*	*	*	*Itenor	*	*	*	*Ialto	*	*	*Isoprn	*	*	*Icorno	*	*Icorno	*	*Iclars	*	*Iclars	*
*ICklav	*	*	*ICstr	*	*ICstr	*	*ICstr	*	*ICvox	*	*	*	*ICvox	*	*	*	*ICvox	*	*	*ICvox	*	*	*ICbras	*	*ICbras	*	*ICww	*	*ICww	*
*clefF4	*	*	*clefC3	*	*clefG2	*	*clefG2	*	*clefF4	*	*	*	*clefC4	*	*	*	*clefC3	*	*	*clefC1	*	*	*clefG2	*	*clefG2	*	*clefG2	*	*clefG2	*
*	*	*	*	*	*	*	*	*	*	*	*	*	*	*	*	*	*	*	*	*	*	*	*ITrd3c5	*	*ITrd3c5	*	*	*	*	*
*k[f#]	*	*	*k[f#]	*	*k[f#]	*	*k[f#]	*	*k[f#]	*	*	*	*k[f#]	*	*	*	*k[f#]	*	*	*k[f#]	*	*	*k[f#]	*	*k[f#]	*	*k[f#]	*	*k[f#]	*
*G:	*	*	*G:	*	*G:	*	*G:	*	*G:	*	*	*	*G:	*	*	*	*G:	*	*	*G:	*	*	*G:	*	*G:	*	*G:	*	*G:	*
*M3/4	*	*	*M3/4	*	*M3/4	*	*M3/4	*	*M3/4	*	*	*	*M3/4	*	*	*	*M3/4	*	*	*M3/4	*	*	*M3/4	*	*M3/4	*	*M3/4	*	*M3/4	*
*2\right	*	*	*2\right	*	*2\right	*	*2\right	*	*2\right	*	*	*	*2\right	*	*	*	*2\right	*	*	*2\right	*	*	*2\right	*	*2\right	*	*2\right	*	*2\right	*
*all\right	*	*	*all\right	*	*all\right	*	*all\right	*	*all\right	*	*	*	*all\right	*	*	*	*all\right	*	*	*all\right	*	*	*all\right	*	*all\right	*	*all\right	*	*all\right	*
=1	=1	=1	=1	=1	=1	=1	=1	=1	=1	=1	=1	=1	=1	=1	=1	=1	=1	=1	=1	=1	=1	=1	=1	=1	=1	=1	=1	=1	=1	=1
!LO:TX:b:t=Tutti	!	!	!LO:TX:t=P:problem:poco fort	!	!LO:TX:b:t=Agnus	!	!LO:TX:b:t=Agnus	!	!	!	!	!	!	!	!	!	!	!	!	!	!	!	!	!	!LO:TX:t=P:problem:2\right:global	!	!	!	!	!
!LO:TX:b:t=Agnus Dei	!	!	!LO:TX:b:t=Agnus	!	!LO:TX:a:t=Adagio	!	!LO:TX:t=P:problem:mf = mezzo forto	!	!	!	!	!	!LO:TX:a:t=Adagio	!	!	!	!	!	!	!	!	!	!LO:TX:b:t=Agnus	!	!LO:TX:b:t=Agnus	!	!LO:TX:b:t=Agnus.	!	!LO:TX:b:t=Agnus	!
!LO:TX:a:t=Adagio	!	!	!LO:TX:a:t=Adagio	!	!LO:TX:t=P:problem:mf = mezzo forto	!LO:DY:a	!LO:TX:a:t=Adagio	!	!LO:TX:a:t=Adagio	!	!	!	!LO:TX:t=P:problem:all\right:global	!	!	!	!LO:TX:t=P:problem:all\right:global	!	!	!LO:TX:t=P:problem:all\right:global	!	!	!LO:TX:a:t=Adag.	!	!LO:TX:a:t=Adagio.	!	!LO:TX:a:t=4	!	!LO:TX:a:t=Adagio	!
8G\L	5 3	.	8d\L	f	8B/L	mf	4dd\	mf	2G\	A-	.	.	2d\	A-	.	.	2b\	A-	.	(4dd\	A-	.	2.B/	.	2.g\	.	2.r	.	2.r	.
8G\	.	.	8d\	.	8B/	.	.	.	.	.	.	.	.	.	.	.	.	.	.	.	.	.	.	.	.	.	.	.	.	.
8G\	.	.	8d\	.	8B/	.	4b\	.	.	.	.	.	.	.	.	.	.	.	.	4b\)	.	.	.	.	.	.	.	.	.	.
!LO:TX:t=P:problem:p = pia	!	!	!	!	!	!	!	!	!	!	!	!	!	!	!	!	!	!	!	!	!	!	!	!	!	!	!	!	!	!
8G\	.	p	8d\	.	8B/	.	.	.	.	.	.	.	.	.	.	.	.	.	.	.	.	.	.	.	.	.	.	.	.	.
!	!	!	!	!	!	!	!	!	!	!	!	!	!	!	!	!	!LO:TX:a:t=Adagio	!	!	!LO:TX:a:t=Adagio	!	!	!	!	!	!	!	!	!	!
8G\	.	.	8d\	.	8B/	.	4g/	.	4B\	-gnus	.	.	4d\	-gnus	.	.	4g\	-gnus	.	4g\	-gnus	.	.	.	.	.	.	.	.	.
8G\J	.	.	8d\J	.	8B/J	.	.	.	.	.	.	.	.	.	.	.	.	.	.	.	.	.	.	.	.	.	.	.	.	.
=2	=2	=2	=2	=2	=2	=2	=2	=2	=2	=2	=2	=2	=2	=2	=2	=2	=2	=2	=2	=2	=2	=2	=2	=2	=2	=2	=2	=2	=2	=2
*tremolo	*	*	*tremolo	*	*	*	*	*	*	*	*	*	*	*	*	*	*	*	*	*	*	*	*	*	*	*	*	*	*	*
*	*	*	*	*	*tremolo	*	*	*	*	*	*	*	*	*	*	*	*	*	*	*	*	*	*	*	*	*	*	*	*	*
!LO:TX:t=P:problem:2\right:global	!	!	!LO:TX:t=P:problem:2\right:global	!	!	!	!	!	!	!	!	!	!	!	!	!	!	!	!	!	!	!	!	!	!	!	!	!	!	!
.	.	.	.	.	.	.	.	.	.	.	.	.	.	.	.	.	.	.	.	16qqg/	.	.	.	.	.	.	.	.	.	.
8A\L	6	.	8d\L	.	8c/L	.	(16g/LL	.	4d\	De-	.	.	4c\	De-	.	.	4a\	de-	.	4f#/	De-	.	4d/	.	4a\	.	2.r	.	2.r	.
.	.	.	.	.	.	.	16f#/)	.	.	.	.	.	.	.	.	.	.	.	.	.	.	.	.	.	.	.	.	.	.	.
8A\	.	.	8d\	.	8c/	.	(16a/	.	.	.	.	.	.	.	.	.	.	.	.	.	.	.	.	.	.	.	.	.	.	.
.	.	.	.	.	.	.	16g/JJ)	.	.	.	.	.	.	.	.	.	.	.	.	.	.	.	.	.	.	.	.	.	.	.
8A\	.	.	8d\	.	8c/	.	4f#/	.	4D/	-i	.	.	4c\	-i	.	.	4a\	-i	.	4f#/	-i	.	4d/	.	4a\	.	.	.	.	.
8A\	.	.	8d\	.	8c/	.	.	.	.	.	.	.	.	.	.	.	.	.	.	.	.	.	.	.	.	.	.	.	.	.
8A\	.	.	8d\	.	8c/	.	4r	.	4r	.	.	.	4r	.	.	.	4r	.	.	4r	.	.	4r	.	4r	.	.	.	.	.
8A\J	.	.	8d\J	.	8c/J	.	.	.	.	.	.	.	.	.	.	.	.	.	.	.	.	.	.	.	.	.	.	.	.	.
*Xtremolo	*	*	*	*	*Xtremolo	*	*	*	*	*	*	*	*	*	*	*	*	*	*	*	*	*	*	*	*	*	*	*	*	*
=3	=3	=3	=3	=3	=3	=3	=3	=3	=3	=3	=3	=3	=3	=3	=3	=3	=3	=3	=3	=3	=3	=3	=3	=3	=3	=3	=3	=3	=3	=3
8D\L	=	.	8d\L	.	8c/L	.	4a/	.	4r	.	.	.	4r	.	.	.	4r	.	.	4r	.	.	2.d/	.	2.a\	.	2.r	.	2.r	.
8D\	.	.	8d\	.	8c/J	.	.	.	.	.	.	.	.	.	.	.	.	.	.	.	.	.	.	.	.	.	.	.	.	.
!	!	!	!	!	!	!	!LO:TX:t=P:problem:mixed beam	!	!	!	!	!	!	!	!	!	!	!	!	!	!	!	!	!	!	!	!	!	!	!
8F#\	.	.	8d\	.	8c/L	.	8d/L	.	8r	.	.	.	8r	.	.	.	8r	.	.	8r	.	.	.	.	.	.	.	.	.	.
8F#\	.	.	8d\	.	8a'/	.	8cc'\	.	8A\L	A-	.	.	4d\	A-	.	.	8a\L	A-	.	(8cc\L	A-	.	.	.	.	.	.	.	.	.
8D\	.	.	8d\	.	8b'/	.	8dd'\	.	8G\J	.	.	.	.	.	.	.	8b\J	.	.	8dd\J)	.	.	.	.	.	.	.	.	.	.
8D\J	.	.	8d\J	.	8a'/J	.	8cc'\J	.	8D\	-gnus	.	.	8d\	-gnus	.	.	8a\	-gnus	.	8cc\	-gnus	.	.	.	.	.	.	.	.	.
*	*	*	*Xtremolo	*	*	*	*	*	*	*	*	*	*	*	*	*	*	*	*	*	*	*	*	*	*	*	*	*	*	*
=4	=4	=4	=4	=4	=4	=4	=4	=4	=4	=4	=4	=4	=4	=4	=4	=4	=4	=4	=4	=4	=4	=4	=4	=4	=4	=4	=4	=4	=4	=4
4G\	6 4	.	4d\	.	4a/	.	4cc\	.	4G\	De-	.	.	4d\	De-	.	.	4a\	de-	.	4ccT\	De-	.	4d/	.	4a\	.	2.r	.	2.r	.
8GG/L	5 3	.	4d\	.	4g/	.	4b\	.	4G\	-i	.	.	4d\	-i	.	.	4g\	-i	.	4b\	-i	.	4g\	.	4b\	.	.	.	.	.
8D'/	.	.	.	.	.	.	.	.	.	.	.	.	.	.	.	.	.	.	.	.	.	.	.	.	.	.	.	.	.	.
8BB'/	.	.	8B/L	.	4r	.	4r	.	4r	.	.	.	4r	.	.	.	4r	.	.	4r	.	.	4r	.	4r	.	.	.	.	.
8GG'/J	.	.	8G/J	.	.	.	.	.	.	.	.	.	.	.	.	.	.	.	.	.	.	.	.	.	.	.	.	.	.	.
!LO:LB:g=original	!	!	!	!	!	!	!	!	!	!	!	!	!	!	!	!	!	!	!	!	!	!	!	!	!	!	!	!	!	!
=5	=5	=5	=5	=5	=5	=5	=5	=5	=5	=5	=5	=5	=5	=5	=5	=5	=5	=5	=5	=5	=5	=5	=5	=5	=5	=5	=5	=5	=5	=5
!	!	!	!	!	!	!	!	!	!	!	!	!	!	!	!	!	!	!	!	!	!	!	!	!	!	!	!	!	!LO:TX:t=P:problem:f = for	!
!LO:TX:t=P:problem:f = for	!	!	!LO:TX:t=P:problem:f = f:	!	!LO:TX:t=P:problem:f = forto:global	!LO:DY:a	!LO:TX:t=P:problem:f = forto	!	!	!	!	!	!	!	!	!	!	!	!	!	!	!	!	!	!	!	!LO:TX:t=P:problem:2\right:global	!LO:DY:a	!LO:TX:t=P:problem:2\right:global	!
*	*	*	*	*	*	*	*	*	*	*	*	*	*	*	*	*	*	*	*	*	*	*	*	*	*	*	*2\right	*	*2\right	*
8C/L	3 5	f	16r	f	(16e/LL	f	16r	f	4C/	qui	.	.	4c\	qui	.	.	4g\	qui	.	4ee\	qui	.	2.r	.	2.r	.	2.cc\	f	2.ee\	f
.	.	.	(16e\LL	.	16g/)	.	(16ee\LL	.	.	.	.	.	.	.	.	.	.	.	.	.	.	.	.	.	.	.	.	.	.	.
8C/J	.	.	16d#X\	.	(16e/	.	16dd#X\	.	.	.	.	.	.	.	.	.	.	.	.	.	.	.	.	.	.	.	.	.	.	.
.	.	.	16e\JJ)	.	16g/JJ)	.	16ee\JJ)	.	.	.	.	.	.	.	.	.	.	.	.	.	.	.	.	.	.	.	.	.	.	.
*tremolo	*	*	*	*	*tremolo	*	*	*	*	*	*	*	*	*	*	*	*	*	*	*	*	*	*	*	*	*	*	*	*	*
8C/L	.	.	16r	.	(16e/LL	.	16r	.	4r	.	.	.	4r	.	.	.	4r	.	.	4r	.	.	.	.	.	.	.	.	.	.
.	.	.	16c\LL	.	16g/)	.	(16cc\LL	.	.	.	.	.	.	.	.	.	.	.	.	.	.	.	.	.	.	.	.	.	.	.
8C/	.	.	16B\	.	16e/	.	16b\	.	.	.	.	.	.	.	.	.	.	.	.	.	.	.	.	.	.	.	.	.	.	.
.	.	.	16c\JJ	.	16g/)	.	16cc\JJ)	.	.	.	.	.	.	.	.	.	.	.	.	.	.	.	.	.	.	.	.	.	.	.
8C/	.	.	(16g\LL	.	16e/	.	(16gg\LL	.	4C/	qui	.	.	4c\	qui	.	.	4g\	qui	.	4ee\	qui	.	.	.	.	.	.	.	.	.
.	.	.	16e\)	.	16g/)	.	16ee\)	.	.	.	.	.	.	.	.	.	.	.	.	.	.	.	.	.	.	.	.	.	.	.
8C/J	.	.	(16e\	.	16e/	.	(16ee\	.	.	.	.	.	.	.	.	.	.	.	.	.	.	.	.	.	.	.	.	.	.	.
.	.	.	16c\JJ)	.	16g/)JJ	.	16cc\JJ)	.	.	.	.	.	.	.	.	.	.	.	.	.	.	.	.	.	.	.	.	.	.	.
!	!	!	!LO:LB:g=original	!	!	!	!	!	!	!	!	!	!	!	!	!	!	!	!	!	!	!	!	!	!	!	!	!	!	!
*	*	*	*	*	*Xtremolo	*	*	*	*	*	*	*	*	*	*	*	*	*	*	*	*	*	*	*	*	*	*	*	*	*
!	!	!	!	!	!	!	!LO:LB:g=original	!	!	!	!	!	!	!	!	!	!	!	!	!	!	!	!	!	!	!	!	!	!	!
!	!	!	!	!	!	!	!	!	!	!	!	!	!	!	!	!	!LO:LB:g=original	!	!	!	!	!	!	!	!	!	!	!	!	!
=6	=6	=6	=6	=6	=6	=6	=6	=6	=6	=6	=6	=6	=6	=6	=6	=6	=6	=6	=6	=6	=6	=6	=6	=6	=6	=6	=6	=6	=6	=6
8BB/L	3 6	.	16r	.	(16d/LL	.	16r	.	2G\	tol-	.	.	2B\	tol-	.	.	2g\	tol-	.	2dd\	tol-	.	2.r	.	2.r	.	2.b\	.	2.dd\	.
.	.	.	(16dn\LL	.	16g/)	.	16dd\LL	.	.	.	.	.	.	.	.	.	.	.	.	.	.	.	.	.	.	.	.	.	.	.
8BB/	.	.	16c#X\	.	(16d/	.	16cc#X\	.	.	.	.	.	.	.	.	.	.	.	.	.	.	.	.	.	.	.	.	.	.	.
.	.	.	16d\JJ)	.	16g/JJ)	.	16dd\JJ	.	.	.	.	.	.	.	.	.	.	.	.	.	.	.	.	.	.	.	.	.	.	.
*	*	*	*	*	*tremolo	*	*	*	*	*	*	*	*	*	*	*	*	*	*	*	*	*	*	*	*	*	*	*	*	*
8BB/	.	.	16r	.	(16d/LL	.	16r	.	.	.	.	.	.	.	.	.	.	.	.	.	.	.	.	.	.	.	.	.	.	.
.	.	.	(16G/LL	.	16g/)	.	16g'/LL	.	.	.	.	.	.	.	.	.	.	.	.	.	.	.	.	.	.	.	.	.	.	.
8BB/	.	.	16B/	.	16d/	.	(16b/	.	.	.	.	.	.	.	.	.	.	.	.	.	.	.	.	.	.	.	.	.	.	.
.	.	.	16d/JJ)	.	16g/)	.	16dd/JJ)	.	.	.	.	.	.	.	.	.	.	.	.	.	.	.	.	.	.	.	.	.	.	.
8BB/	.	.	(16g\LL	.	16d/	.	(16gg\LL	.	4G\	-lis	.	.	4B\	-lis	.	.	4g\	-lis	.	4dd\	-lis	.	.	.	.	.	.	.	.	.
.	.	.	16d\)	.	16g/)	.	16dd\)	.	.	.	.	.	.	.	.	.	.	.	.	.	.	.	.	.	.	.	.	.	.	.
8BB/J	.	.	(16d\	.	16d/	.	(16dd\	.	.	.	.	.	.	.	.	.	.	.	.	.	.	.	.	.	.	.	.	.	.	.
.	.	.	16B\JJ)	.	16g/)JJ	.	16b\JJ)	.	.	.	.	.	.	.	.	.	.	.	.	.	.	.	.	.	.	.	.	.	.	.
*Xtremolo	*	*	*	*	*Xtremolo	*	*	*	*	*	*	*	*	*	*	*	*	*	*	*	*	*	*	*	*	*	*	*	*	*
!	!	!	!	!	!LO:LB:g=original	!	!	!	!	!	!	!	!	!	!	!	!	!	!	!	!	!	!	!	!	!	!	!	!	!
=7	=7	=7	=7	=7	=7	=7	=7	=7	=7	=7	=7	=7	=7	=7	=7	=7	=7	=7	=7	=7	=7	=7	=7	=7	=7	=7	=7	=7	=7	=7
!LO:TX:t=P:problem:mixed beam	!	!	!	!	!	!	!	!	!	!	!	!	!	!	!	!	!	!	!	!	!	!	!	!	!	!	!LO:TX:t=P:problem:p = pi.	!LO:DY:a	!LO:TX:t=P:problem:p = pia:global	!
8D\L	7 5	.	(16c\LL	.	16d'/LL	.	16dd'\LL	.	4F#\	pec-	.	.	4d\	pec-	.	.	4a\	pec-	.	4cc\	pec-	.	2d/	.	(2a\	.	(2cc\	p	(2ff#\	p
.	.	.	16d\	.	16d'/	.	16dd'\	.	.	.	.	.	.	.	.	.	.	.	.	.	.	.	.	.	.	.	.	.	.	.
8A\	.	.	16c\	.	16f#'/	.	16ff#'\	.	.	.	.	.	.	.	.	.	.	.	.	.	.	.	.	.	.	.	.	.	.	.
.	.	.	16d\JJ)	.	16f#'/JJ	.	16ff#'\JJ	.	.	.	.	.	.	.	.	.	.	.	.	.	.	.	.	.	.	.	.	.	.	.
8F#\	.	.	(16c\LL	.	16a'/LL	.	16aa'\LL	.	4F#\	-ca-	.	.	4d\	-ca-	.	.	4a\	-ca-	.	4cc\	-ca-	.	.	.	.	.	.	.	.	.
.	.	.	16d\	.	16a'/	.	16aa'\	.	.	.	.	.	.	.	.	.	.	.	.	.	.	.	.	.	.	.	.	.	.	.
8D\	.	.	16c\	.	16cc'/	.	16cccn'\	.	.	.	.	.	.	.	.	.	.	.	.	.	.	.	.	.	.	.	.	.	.	.
.	.	.	16d\JJ)	.	16cc'/JJ	.	16ccc'\JJ	.	.	.	.	.	.	.	.	.	.	.	.	.	.	.	.	.	.	.	.	.	.	.
8G\	5 3	.	(16G\LL	.	16b'/LL	.	16bb'\LL	.	4G\	-ta	.	.	4d\	-ta	.	.	4g\	-ta	.	4b\	-ta	.	(4g\	.	4b\)	.	4b\)	.	4gg\)	.
.	.	.	16d\	.	16b'/	.	16bb'\	.	.	.	.	.	.	.	.	.	.	.	.	.	.	.	.	.	.	.	.	.	.	.
8GG/J	.	.	16B\	.	16g'/	.	16gg'\	.	.	.	.	.	.	.	.	.	.	.	.	.	.	.	.	.	.	.	.	.	.	.
.	.	.	16d\JJ)	.	16g'/JJ	.	16gg'\JJ	.	.	.	.	.	.	.	.	.	.	.	.	.	.	.	.	.	.	.	.	.	.	.
=8	=8	=8	=8	=8	=8	=8	=8	=8	=8	=8	=8	=8	=8	=8	=8	=8	=8	=8	=8	=8	=8	=8	=8	=8	=8	=8	=8	=8	=8	=8
!LO:TX:t=P:problem:p = pia	!	!	!	!	!	!	!	!	!	!	!	!	!	!	!	!	!	!	!	!	!	!	!	!	!	!	!	!	!	!
!LO:TX:t=P:problem:mixed beam	!	!	!LO:TX:t=P:problem:p = pia	!	!LO:TX:t=P:problem:p = pia	!LO:DY:a	!LO:TX:t=P:problem:p = piano	!	!LO:TX:t=P:problem:p = pia	!	!	!LO:DY:a	!LO:TX:t=P:problem:p = pia	!	!	!LO:DY:a	!	!	!	!	!	!	!	!	!LO:TX:t=P:problem:p = p.	!	!LO:TX:t=P:problem:f = f.	!LO:DY:a	!	!
8D\L	7 5	p	(16c\LL	p	16d'/LL	p	16dd'\LL	p	2F#\	mun-	.	p	2d\	mun-	.	p	2a\	mun-	.	2cc\	mun-	.	2d/)	.	(2a\	p	(2cc\	f	(2ff#\	.
.	.	.	16d\	.	16d'/	.	16dd'\	.	.	.	.	.	.	.	.	.	.	.	.	.	.	.	.	.	.	.	.	.	.	.
8A\	.	.	16c\	.	16f#'/	.	16ff#'\	.	.	.	.	.	.	.	.	.	.	.	.	.	.	.	.	.	.	.	.	.	.	.
.	.	.	16d\JJ)	.	16f#'/JJ	.	16ff#'\JJ	.	.	.	.	.	.	.	.	.	.	.	.	.	.	.	.	.	.	.	.	.	.	.
8F#\	.	.	(16c\LL	.	16a'/LL	.	16aa'\LL	.	.	.	.	.	.	.	.	.	.	.	.	.	.	.	.	.	.	.	.	.	.	.
.	.	.	16d\	.	16a'/	.	16aa'\	.	.	.	.	.	.	.	.	.	.	.	.	.	.	.	.	.	.	.	.	.	.	.
8D\	.	.	16c\	.	16cc'/	.	16ccc'\	.	.	.	.	.	.	.	.	.	.	.	.	.	.	.	.	.	.	.	.	.	.	.
.	.	.	16d\JJ)	.	16cc'/JJ	.	16ccc'\JJ	.	.	.	.	.	.	.	.	.	.	.	.	.	.	.	.	.	.	.	.	.	.	.
8G\	5 3	.	(16G\LL	.	16b'/LL	.	16bb'\LL	.	4G\	-di	.	.	4d\	-di	.	.	4g\	-di	.	4b\	-di	.	4g\	.	4b\)	.	4b\)	.	4gg\)	.
.	.	.	16d\	.	16b'/	.	16bb'\	.	.	.	.	.	.	.	.	.	.	.	.	.	.	.	.	.	.	.	.	.	.	.
8GG/J	.	.	16B\	.	16g'/	.	16gg'\	.	.	.	.	.	.	.	.	.	.	.	.	.	.	.	.	.	.	.	.	.	.	.
.	.	.	16d\JJ)	f	16g'/JJ	.	16gg'\JJ	.	.	.	.	.	.	.	.	.	.	.	.	.	.	.	.	.	.	.	.	.	.	.
!	!	!	!	!	!	!	!	!	!	!	!	!	!LO:LB:g=original	!	!	!	!	!	!	!	!	!	!	!	!	!	!	!	!	!
=9	=9	=9	=9	=9	=9	=9	=9	=9	=9	=9	=9	=9	=9	=9	=9	=9	=9	=9	=9	=9	=9	=9	=9	=9	=9	=9	=9	=9	=9	=9
!LO:TX:t=P:problem:f = for	!	!	!LO:TX:t=P:problem:mixed beam	!	!	!LO:DY:a	!LO:TX:t=P:problem:f = forto	!	!LO:TX:t=P:problem:f = fort	!	!	!LO:DY:a	!LO:TX:t=P:problem:f = forto	!	!	!LO:DY:a	!	!	!	!	!	!	!	!	!	!	!	!	!	!
*tremolo	*	*	*	*	*	*	*	*	*	*	*	*	*	*	*	*	*	*	*	*	*	*	*	*	*	*	*	*	*	*
8C/L	3	f	8C/L	.	8g/L	f	(16ee\LL	f	4r	.	.	f	4r	.	.	f	4r	.	.	4r	.	.	4r	.	4r	.	4r	.	4r	.
.	.	.	.	.	.	.	16dd#X\	.	.	.	.	.	.	.	.	.	.	.	.	.	.	.	.	.	.	.	.	.	.	.
8C/	.	.	8c/J	.	8g\	.	16ee\	.	.	.	.	.	.	.	.	.	.	.	.	.	.	.	.	.	.	.	.	.	.	.
.	.	.	.	.	.	.	16dd#\JJ)	.	.	.	.	.	.	.	.	.	.	.	.	.	.	.	.	.	.	.	.	.	.	.
!	!	!	!	!	!	!	!	!	!	!	!	!	!	!	!	!	!	!	!	!	!	!	!	!	!	!	!	!	!	!LO:DY:a
*	*	*	*tremolo	*	*	*	*	*	*	*	*	*	*	*	*	*	*	*	*	*	*	*	*	*	*	*	*	*	*	*
!	!	!	!	!	!	!	!	!	!	!	!	!	!	!	!	!	!	!	!	!LO:LB:g=original	!	!	!	!	!	!	!	!	!	!
8C/	.	.	8c\L	.	8g/	.	(16ee\LL	.	4c\	par-	Ex-	.	4c\	pa-	ex-	.	4g\	par-	ax-	4ee\	par-	ex-	4r	.	4r	.	4g/	.	4ee\	f
.	.	.	.	.	.	.	16ff#\	.	.	.	.	.	.	.	.	.	.	.	.	.	.	.	.	.	.	.	.	.	.	.
8C/J	.	.	8c\	.	8g/	.	16gg\)	.	.	.	.	.	.	.	.	.	.	.	.	.	.	.	.	.	.	.	.	.	.	.
.	.	.	.	.	.	.	16ee'\JJ	.	.	.	.	.	.	.	.	.	.	.	.	.	.	.	.	.	.	.	.	.	.	.
*Xtremolo	*	*	*	*	*	*	*	*	*	*	*	*	*	*	*	*	*	*	*	*	*	*	*	*	*	*	*	*	*	*
8AA/L	6	.	8c\	.	8d/ 8cc	.	(16ff#\LL	.	4A\	.	-au-	.	4c\	.	-au-	.	4a\	.	-au-	4ff#\	.	-au-	4d/	.	4a\	.	4cc\	.	4ff#\	.
.	.	.	.	.	.	.	16gg\	.	.	.	.	.	.	.	.	.	.	.	.	.	.	.	.	.	.	.	.	.	.	.
8AA/J	.	.	8c\J	.	8d/J 8cc	.	16aa\)	.	.	.	.	.	.	.	.	.	.	.	.	.	.	.	.	.	.	.	.	.	.	.
.	.	.	.	.	.	.	16ff#'\JJ	.	.	.	.	.	.	.	.	.	.	.	.	.	.	.	.	.	.	.	.	.	.	.
=10	=10	=10	=10	=10	=10	=10	=10	=10	=10	=10	=10	=10	=10	=10	=10	=10	=10	=10	=10	=10	=10	=10	=10	=10	=10	=10	=10	=10	=10	=10
!	!	!	!	!	!	!LO:DY:a	!LO:TX:t=P:problem:p = piano	!	!	!	!	!	!	!	!	!	!	!	!	!	!	!	!	!	!	!	!	!	!	!
*	*	*	*Xtremolo	*	*	*	*	*	*	*	*	*	*	*	*	*	*	*	*	*	*	*	*	*	*	*	*	*	*	*
4GG/	.	.	4G/ 4d	.	4d/ 4b	p	(16gg\LL	p	4G\	-ce	-di	.	4d\	-ce	-di	.	4b\	-ce	-di	4gg\	-ce	-di	4g\	.	4b\	.	4b\	.	4gg\	.
.	.	.	.	.	.	.	16bb\	.	.	.	.	.	.	.	.	.	.	.	.	.	.	.	.	.	.	.	.	.	.	.
.	.	.	.	.	.	.	16bb\	.	.	.	.	.	.	.	.	.	.	.	.	.	.	.	.	.	.	.	.	.	.	.
.	.	.	.	.	.	.	16aa\JJ	.	.	.	.	.	.	.	.	.	.	.	.	.	.	.	.	.	.	.	.	.	.	.
4r	.	.	4r	.	4r	.	16gg\LL	.	4r	.	.	.	4r	.	.	.	4r	.	.	4r	.	.	4r	.	4r	.	4r	.	4r	.
.	.	.	.	.	.	.	16ff#\	.	.	.	.	.	.	.	.	.	.	.	.	.	.	.	.	.	.	.	.	.	.	.
.	.	.	.	.	.	.	16ee\	.	.	.	.	.	.	.	.	.	.	.	.	.	.	.	.	.	.	.	.	.	.	.
!	!	!	!	!	!	!	!LO:LB:g=original	!	!	!	!	!	!	!	!	!	!	!	!	!	!	!	!	!	!	!	!	!	!	!
.	.	.	.	.	.	.	16dd\JJ)	.	.	.	.	.	.	.	.	.	.	.	.	.	.	.	.	.	.	.	.	.	.	.
4r	.	.	4r	.	(16e/LL	.	(16cc\LL	.	4r	.	.	.	4r	.	.	.	4r	.	.	4r	.	.	4r	.	4r	.	4r	.	4r	.
.	.	.	.	.	16d/	.	16b\	.	.	.	.	.	.	.	.	.	.	.	.	.	.	.	.	.	.	.	.	.	.	.
.	.	.	.	.	16c/)	.	16a\	.	.	.	.	.	.	.	.	.	.	.	.	.	.	.	.	.	.	.	.	.	.	.
.	.	.	.	.	16B/JJ	.	16g#X\JJ)	.	.	.	.	.	.	.	.	.	.	.	.	.	.	.	.	.	.	.	.	.	.	.
=11	=11	=11	=11	=11	=11	=11	=11	=11	=11	=11	=11	=11	=11	=11	=11	=11	=11	=11	=11	=11	=11	=11	=11	=11	=11	=11	=11	=11	=11	=11
!	!	!	!	!	!	!LO:DY:a	!LO:TX:t=P:problem:f = forto	!	!	!	!	!	!	!	!	!	!	!	!	!	!	!	!	!	!	!	!	!	!	!
8C/L	.	.	8e\L	.	8c/L	f	16a\LL	f	8C/	no-	nos	.	8e\	no-	nos	.	8cc\	no-	nos	8ee\	no-	nos	4r	.	4r	.	8aa\L	.	8ee\L	.
.	.	.	.	.	.	.	16ee\	.	.	.	.	.	.	.	.	.	.	.	.	.	.	.	.	.	.	.	.	.	.	.
8AA/J	.	.	8e\J	.	(16c/L	.	16cc\	.	8C/	-bis	.	.	8e\	-bis	.	.	8a\	-bis	.	8cc\	-bis	.	.	.	.	.	16gg\L	.	16ccc\L	.
.	.	.	.	.	16A/JJ)	.	16a\JJ	.	.	.	.	.	.	.	.	.	.	.	.	.	.	.	.	.	.	.	16aa\JJ	.	16bb\JJ	.
4D/	.	.	4d\	.	4B/	.	4gn/	.	4D\	Do-	Do-	.	4d\	Do-	Do-	.	4g\	do-	do-	4b\	Do-	do-	4g\	.	4b\	.	4gg\	.	4bb\	.
4DD/	.	.	4d\	.	4A/	.	4f#/	.	4D\	-mi-	-mi-	.	4d\	-mi-	-mi-	.	4f#\	-mi-	-mi-	4a\	-mi-	-mi-	4d/	.	4a\	.	4ff#\	.	4aa\	.
!	!	!	!LO:LB:g=original	!	!	!	!	!	!	!	!	!	!	!	!	!	!	!	!	!	!	!	!	!	!	!	!	!	!	!
=12	=12	=12	=12	=12	=12	=12	=12	=12	=12	=12	=12	=12	=12	=12	=12	=12	=12	=12	=12	=12	=12	=12	=12	=12	=12	=12	=12	=12	=12	=12
*	*	*	*^	*	*^	*	*	*	*	*	*	*	*	*	*	*	*	*	*	*	*	*	*	*	*	*	*	*	*	*
!	!	!	!	!	!	!	!	!	!	!	!	!	!	!	!	!	!	!	!	!	!	!	!	!	!LO:TX:a:t=Solo	!	!LO:TX:a:t=Solo	!	!	!	!	!
4GG/	.	.	4d\	4rBByy	.	4B/	4rAyy	.	4g/	.	4G\	-ne	-ne	.	4d\	-ne	-ne	.	4g\	-ne	-ne	4g/	-ne	-ne	4B/	.	4g\	.	4gg\	.	4gg\	.
!	!	!	!LO:TX:a:t=Corno	!	!	!LO:TX:b:t=Corni	!	!	!	!	!	!	!	!	!	!	!	!	!	!	!	!	!	!	!	!	!	!	!	!	!	!
4r	.	.	4rGG	8B/L	.	4r	8g\L	.	4r	.	4r	.	.	.	4r	.	.	.	4r	.	.	4r	.	.	8B'/L	.	8g'\L	.	4r	.	4r	.
.	.	.	.	8B/	.	.	8g\	.	.	.	.	.	.	.	.	.	.	.	.	.	.	.	.	.	8B'/	.	8g'\	.	.	.	.	.
!LO:TX:t=P:problem:p = pia	!	!	!	!	!	!	!	!	!	!	!	!	!	!	!	!	!	!	!	!	!	!	!	!	!	!	!	!	!	!	!	!
!LO:TX:b:t=pedal	!	!LO:DY:a	!	!	!	!	!	!	!	!	!	!	!	!	!	!	!	!	!	!	!	!	!	!	!	!	!	!	!	!	!	!
4r	.	p	4rGG	8d/	.	4r	8a\	.	4r	.	4r	.	.	.	4r	.	.	.	4r	.	.	4r	.	.	8d'/	.	8a'\	.	4r	.	4r	.
.	.	.	.	8d/J	.	.	8a\J	.	.	.	.	.	.	.	.	.	.	.	.	.	.	.	.	.	8d'/J	.	8a'\J	.	.	.	.	.
*	*	*	*v	*v	*	*	*	*	*	*	*	*	*	*	*	*	*	*	*	*	*	*	*	*	*	*	*	*	*	*	*	*
*	*	*	*	*	*v	*v	*	*	*	*	*	*	*	*	*	*	*	*	*	*	*	*	*	*	*	*	*	*	*	*	*
!	!	!	!	!	!	!	!LO:LB:g=original	!	!	!	!	!	!	!	!	!	!	!	!	!	!	!	!	!	!	!	!	!	!	!
!	!	!	!	!	!	!	!	!	!	!	!	!	!	!	!	!	!	!	!	!	!	!	!	!	!LO:LB:g=original	!	!	!	!	!
!	!	!	!	!	!	!	!	!	!	!	!	!	!	!	!	!	!	!	!	!	!	!	!	!	!	!	!	!	!LO:LB:g=original	!
=13	=13	=13	=13	=13	=13	=13	=13	=13	=13	=13	=13	=13	=13	=13	=13	=13	=13	=13	=13	=13	=13	=13	=13	=13	=13	=13	=13	=13	=13	=13
!	!	!	!LO:TX:t=P:problem:p = pia	!	!	!LO:DY:a	!	!	!LO:TX:a:t=4	!	!	!	!LO:TX:a:t=4	!	!	!	!LO:TX:a:t=4	!	!	!LO:TX:a:t=4	!	!	!	!	!	!	!LO:TX:a:t=2	!	!	!
2G\	.	.	2G/ 2d	p	2B/	p	8r	p	2.r	.	.	.	2.r	.	.	.	2.r	.	.	2.r	.	.	4g\	.	4b\	.	2.r	.	2.r	.
!	!	!	!	!	!	!	!LO:TX:b:i:t=dolce	!	!	!	!	!	!	!	!	!	!	!	!	!	!	!	!	!	!	!	!	!	!	!
.	.	.	.	.	.	.	(32dd\LLL	.	.	.	.	.	.	.	.	.	.	.	.	.	.	.	.	.	.	.	.	.	.	.
.	.	.	.	.	.	.	32cc#X\	.	.	.	.	.	.	.	.	.	.	.	.	.	.	.	.	.	.	.	.	.	.	.
.	.	.	.	.	.	.	32dd\	.	.	.	.	.	.	.	.	.	.	.	.	.	.	.	.	.	.	.	.	.	.	.
.	.	.	.	.	.	.	32ee\JJJ)	.	.	.	.	.	.	.	.	.	.	.	.	.	.	.	.	.	.	.	.	.	.	.
.	.	.	.	.	.	.	8dd\L	.	.	.	.	.	.	.	.	.	.	.	.	.	.	.	8g'\L	.	8b'\L	.	.	.	.	.
.	.	.	.	.	.	.	8dd\J	.	.	.	.	.	.	.	.	.	.	.	.	.	.	.	8g'\	.	8b'\	.	.	.	.	.
4D\	.	.	4A/	.	4c/	.	(16dd\LL	.	.	.	.	.	.	.	.	.	.	.	.	.	.	.	8d'\	.	8a'\	.	.	.	.	.
.	.	.	.	.	.	.	16ccn\	.	.	.	.	.	.	.	.	.	.	.	.	.	.	.	.	.	.	.	.	.	.	.
.	.	.	.	.	.	.	16a\	.	.	.	.	.	.	.	.	.	.	.	.	.	.	.	8d'\J	.	8a'\J	.	.	.	.	.
.	.	.	.	.	.	.	16f#\JJ)	.	.	.	.	.	.	.	.	.	.	.	.	.	.	.	.	.	.	.	.	.	.	.
!LO:LB:g=original	!	!	!	!	!	!	!	!	!	!	!	!	!	!	!	!	!	!	!	!	!	!	!	!	!	!	!	!	!	!
!	!	!	!	!	!	!	!	!	!	!	!	!	!	!	!	!	!	!	!	!	!	!	!	!	!LO:LB:g=original	!	!	!	!	!
=14	=14	=14	=14	=14	=14	=14	=14	=14	=14	=14	=14	=14	=14	=14	=14	=14	=14	=14	=14	=14	=14	=14	=14	=14	=14	=14	=14	=14	=14	=14
*	*	*	*^	*	*^	*	*	*	*	*	*	*	*	*	*	*	*	*	*	*	*	*	*	*	*	*	*	*	*	*
4GG/	.	.	4G/	4rBByy	.	4B/	4rAyy	.	4g/	.	2.r	.	.	.	2.r	.	.	.	2.r	.	.	2.r	.	.	4B/	.	4g\	.	2.r	.	2.r	.
!	!	!	!LO:TX:a:t=Corno	!	!	!LO:TX:b:t=Corni	!	!	!	!	!	!	!	!	!	!	!	!	!	!	!	!	!	!	!	!	!	!	!	!	!	!
4r	.	.	4rGG	8B/L	.	4r	8g\L	.	4r	.	.	.	.	.	.	.	.	.	.	.	.	.	.	.	8B'/L	.	8g'\L	.	.	.	.	.
.	.	.	.	8B/	.	.	8g\	.	.	.	.	.	.	.	.	.	.	.	.	.	.	.	.	.	8B'/	.	8g'\	.	.	.	.	.
4r	.	.	4rGG	8d/	.	4r	8a\	.	4r	.	.	.	.	.	.	.	.	.	.	.	.	.	.	.	8d'/	.	8a'\	.	.	.	.	.
.	.	.	.	8d/J	.	.	8a\J	.	.	.	.	.	.	.	.	.	.	.	.	.	.	.	.	.	8d'/J	.	8a'\J	.	.	.	.	.
*	*	*	*v	*v	*	*	*	*	*	*	*	*	*	*	*	*	*	*	*	*	*	*	*	*	*	*	*	*	*	*	*	*
*	*	*	*	*	*v	*v	*	*	*	*	*	*	*	*	*	*	*	*	*	*	*	*	*	*	*	*	*	*	*	*	*
=15	=15	=15	=15	=15	=15	=15	=15	=15	=15	=15	=15	=15	=15	=15	=15	=15	=15	=15	=15	=15	=15	=15	=15	=15	=15	=15	=15	=15	=15	=15
2G\	.	.	2G/ 2d	.	2B/	.	8r	.	2.r	.	.	.	2.r	.	.	.	2.r	.	.	2.r	.	.	4g\	.	4b\	.	4r	.	4r	.
.	.	.	.	.	.	.	(32dd\LLL	.	.	.	.	.	.	.	.	.	.	.	.	.	.	.	.	.	.	.	.	.	.	.
.	.	.	.	.	.	.	32cc#X\	.	.	.	.	.	.	.	.	.	.	.	.	.	.	.	.	.	.	.	.	.	.	.
.	.	.	.	.	.	.	32dd\	.	.	.	.	.	.	.	.	.	.	.	.	.	.	.	.	.	.	.	.	.	.	.
.	.	.	.	.	.	.	32ee\JJJ)	.	.	.	.	.	.	.	.	.	.	.	.	.	.	.	.	.	.	.	.	.	.	.
!	!	!	!	!	!	!	!	!	!	!	!	!	!	!	!	!	!	!	!	!	!	!	!LO:TX:t=P:problem:mixed beam	!	!	!	!	!	!	!
.	.	.	.	.	.	.	8dd\L	.	.	.	.	.	.	.	.	.	.	.	.	.	.	.	8g/L	.	8b'\L	.	4r	.	4r	.
.	.	.	.	.	.	.	8dd\J	.	.	.	.	.	.	.	.	.	.	.	.	.	.	.	8g/	.	8b'\	.	.	.	.	.
!LO:TX:b:t=Org	!	!	!	!	!	!	!	!	!	!	!	!	!	!	!	!	!	!	!	!	!	!	!	!	!	!	!	!	!LO:TX:t=P:problem:pp = pp.	!LO:DY:a
4D\	7 5	.	4A/	.	4c/	.	(16dd\LL	.	.	.	.	.	.	.	.	.	.	.	.	.	.	.	8d/	.	8a'\	.	8r	.	8r	pp
.	.	.	.	.	.	.	16ccn\	.	.	.	.	.	.	.	.	.	.	.	.	.	.	.	.	.	.	.	.	.	.	.
!	!	!	!	!	!	!	!	!	!	!	!	!	!	!	!	!	!	!	!	!	!	!	!	!	!	!	!LO:TX:t=P:problem:pp = pp.	!LO:DY:a	!	!
.	.	.	.	.	.	.	16a\	.	.	.	.	.	.	.	.	.	.	.	.	.	.	.	8d/J	.	8a'\J	.	8cc\	pp	8ff#\	.
.	.	.	.	.	.	.	16f#\JJ)	.	.	.	.	.	.	.	.	.	.	.	.	.	.	.	.	.	.	.	.	.	.	.
=16	=16	=16	=16	=16	=16	=16	=16	=16	=16	=16	=16	=16	=16	=16	=16	=16	=16	=16	=16	=16	=16	=16	=16	=16	=16	=16	=16	=16	=16	=16
*	*	*	*	*	*	*	*^	*	*	*	*	*	*	*	*	*	*	*	*	*	*	*	*	*	*	*	*	*	*	*
!	!	!	!	!	!	!LO:DY:a	!	!	!	!	!	!	!	!	!	!	!	!	!	!	!	!	!	!	!	!	!	!	!	!	!
4G\	.	pp	2d\	pp	2c/	pp	2a/	2f#\	pp	2.r	.	.	.	2.r	.	.	.	2.r	.	.	2.r	.	.	2d/	.	2a\	.	2cc\	.	2ff#\	.
4D\	.	.	.	.	.	.	.	.	.	.	.	.	.	.	.	.	.	.	.	.	.	.	.	.	.	.	.	.	.	.	.
4GG/	.	.	4d\	.	4B/	.	4g/	4reyy	.	.	.	.	.	.	.	.	.	.	.	.	.	.	.	4B/	.	4g\	.	4b\	.	4gg\	.
*	*	*	*	*	*	*	*v	*v	*	*	*	*	*	*	*	*	*	*	*	*	*	*	*	*	*	*	*	*	*	*	*
!	!	!	!	!	!	!	!	!	!	!	!	!	!	!	!	!	!	!	!	!	!	!	!	!	!	!	!	!	!LO:LB:g=original	!
=17:|!	=17:|!	=17:|!	=17:|!	=17:|!	=17:|!	=17:|!	=17:|!	=17:|!	=17:|!	=17:|!	=17:|!	=17:|!	=17:|!	=17:|!	=17:|!	=17:|!	=17:|!	=17:|!	=17:|!	=17:|!	=17:|!	=17:|!	=17:|!	=17:|!	=17:|!	=17:|!	=17:|!	=17:|!	=17:|!	=17:|!
!LO:TX:t=P:problem:f = poco fort	!	!	!	!LO:DY:a	!	!LO:DY:a	!LO:TX:t=P:problem:mf = mezzo forto	!	!	!	!	!	!	!	!	!	!	!	!	!	!	!	!	!	!LO:TX:t=P:problem:f = for.	!LO:DY:a	!	!	!LO:TX:a:t=4	!
8G\L	5 3	f	(16G/LL	mf	16B/LL	f	(4dd\	mf	2G\	A-	.	.	2d\	A-	.	.	2b\	A-	.	(4dd\	A-	.	2.B/	.	2.g\	f	2.r	.	2.r	.
.	.	.	16B/)	.	16d/	.	.	.	.	.	.	.	.	.	.	.	.	.	.	.	.	.	.	.	.	.	.	.	.	.
8G\	.	.	(16G/	.	16B/	.	.	.	.	.	.	.	.	.	.	.	.	.	.	.	.	.	.	.	.	.	.	.	.	.
.	.	.	16B/JJ)	.	16d/JJ	.	.	.	.	.	.	.	.	.	.	.	.	.	.	.	.	.	.	.	.	.	.	.	.	.
*	*	*	*tremolo	*	*tremolo	*	*	*	*	*	*	*	*	*	*	*	*	*	*	*	*	*	*	*	*	*	*	*	*	*
8G\	.	.	(16G/LL	.	(16B/LL	.	4b\)	.	.	.	.	.	.	.	.	.	.	.	.	4b\)	.	.	.	.	.	.	.	.	.	.
.	.	.	16B/)	.	16d/)	.	.	.	.	.	.	.	.	.	.	.	.	.	.	.	.	.	.	.	.	.	.	.	.	.
8G\	.	.	16G/	.	16B/	.	.	.	.	.	.	.	.	.	.	.	.	.	.	.	.	.	.	.	.	.	.	.	.	.
.	.	.	16B/)	.	16d/)	.	.	.	.	.	.	.	.	.	.	.	.	.	.	.	.	.	.	.	.	.	.	.	.	.
8G\	.	.	16G/	.	16B/	.	4g/	.	4B\	-gnus	.	.	4d\	-gnus	.	.	4g\	-gnus	.	4g\	-gnus	.	.	.	.	.	.	.	.	.
.	.	.	16B/)	.	16d/)	.	.	.	.	.	.	.	.	.	.	.	.	.	.	.	.	.	.	.	.	.	.	.	.	.
8G\J	.	.	16G/	.	16B/	.	.	.	.	.	.	.	.	.	.	.	.	.	.	.	.	.	.	.	.	.	.	.	.	.
.	.	.	16B/)JJ	.	16d/)JJ	.	.	.	.	.	.	.	.	.	.	.	.	.	.	.	.	.	.	.	.	.	.	.	.	.
*	*	*	*Xtremolo	*	*Xtremolo	*	*	*	*	*	*	*	*	*	*	*	*	*	*	*	*	*	*	*	*	*	*	*	*	*
=18	=18	=18	=18	=18	=18	=18	=18	=18	=18	=18	=18	=18	=18	=18	=18	=18	=18	=18	=18	=18	=18	=18	=18	=18	=18	=18	=18	=18	=18	=18
.	.	.	.	.	.	.	.	.	.	.	.	.	.	.	.	.	.	.	.	16qqg/	.	.	.	.	.	.	.	.	.	.
*tremolo	*	*	*	*	*	*	*	*	*	*	*	*	*	*	*	*	*	*	*	*	*	*	*	*	*	*	*	*	*	*
8A\L	6	.	(16A/LL	.	(16c/LL	.	(16g/LL	.	4d\	De-	.	.	4d\	De-	.	.	4a\	de-	.	4f#/	De-	.	4d/	.	4a\	.	2.r	.	2.r	.
.	.	.	16c/)	.	16d/)	.	16f#/)	.	.	.	.	.	.	.	.	.	.	.	.	.	.	.	.	.	.	.	.	.	.	.
8A\	.	.	(16A/	.	(16c/	.	(16a/	.	.	.	.	.	.	.	.	.	.	.	.	.	.	.	.	.	.	.	.	.	.	.
.	.	.	16c/JJ)	.	16d/JJ)	.	16g/JJ)	.	.	.	.	.	.	.	.	.	.	.	.	.	.	.	.	.	.	.	.	.	.	.
*	*	*	*tremolo	*	*tremolo	*	*	*	*	*	*	*	*	*	*	*	*	*	*	*	*	*	*	*	*	*	*	*	*	*
8A\	.	.	(16A/LL	.	(16c/LL	.	4f#/	.	4D/	-i	.	.	4d\	-i	.	.	4a\	-i	.	4f#/	-i	.	4d/	.	4a\	.	.	.	.	.
.	.	.	16c/)	.	16d/)	.	.	.	.	.	.	.	.	.	.	.	.	.	.	.	.	.	.	.	.	.	.	.	.	.
8A\	.	.	16A/	.	16c/	.	.	.	.	.	.	.	.	.	.	.	.	.	.	.	.	.	.	.	.	.	.	.	.	.
.	.	.	16c/)	.	16d/)	.	.	.	.	.	.	.	.	.	.	.	.	.	.	.	.	.	.	.	.	.	.	.	.	.
8A\	.	.	16A/	.	16c/	.	4r	.	4r	.	.	.	4r	.	.	.	4r	.	.	4r	.	.	4r	.	4r	.	.	.	.	.
.	.	.	16c/)	.	16d/)	.	.	.	.	.	.	.	.	.	.	.	.	.	.	.	.	.	.	.	.	.	.	.	.	.
8A\J	.	.	16A/	.	16c/	.	.	.	.	.	.	.	.	.	.	.	.	.	.	.	.	.	.	.	.	.	.	.	.	.
.	.	.	16c/)JJ	.	16d/)JJ	.	.	.	.	.	.	.	.	.	.	.	.	.	.	.	.	.	.	.	.	.	.	.	.	.
*Xtremolo	*	*	*Xtremolo	*	*Xtremolo	*	*	*	*	*	*	*	*	*	*	*	*	*	*	*	*	*	*	*	*	*	*	*	*	*
!	!	!	!	!	!	!	!LO:PB:g=original	!	!	!	!	!	!	!	!	!	!	!	!	!	!	!	!	!	!	!	!	!	!	!
=19	=19	=19	=19	=19	=19	=19	=19	=19	=19	=19	=19	=19	=19	=19	=19	=19	=19	=19	=19	=19	=19	=19	=19	=19	=19	=19	=19	=19	=19	=19
8D\L	.	.	16A/LL	.	(16c/LL	.	4a/	.	4r	.	.	.	4r	.	.	.	4r	.	.	4r	.	.	2.d/	.	2.a\	.	2.r	.	2.r	.
.	.	.	16c/	.	16d/)	.	.	.	.	.	.	.	.	.	.	.	.	.	.	.	.	.	.	.	.	.	.	.	.	.
8D\	.	.	16A/	.	(16c/	.	.	.	.	.	.	.	.	.	.	.	.	.	.	.	.	.	.	.	.	.	.	.	.	.
.	.	.	16c/JJ	.	16d/JJ)	.	.	.	.	.	.	.	.	.	.	.	.	.	.	.	.	.	.	.	.	.	.	.	.	.
!	!	!	!	!	!	!	!LO:TX:t=P:problem:mixed beam	!	!	!	!	!	!	!	!	!	!	!	!	!	!	!	!	!	!	!	!	!	!	!
!	!	!	!	!	!	!	!	!	!	!	!	!	!	!	!	!	!LO:LB:g=original	!	!	!	!	!	!	!	!	!	!	!	!	!
8F#\	.	.	16A/LL	.	16c/LL	.	8d/L	.	8r	.	.	.	8r	.	.	.	8r	.	.	8r	.	.	.	.	.	.	.	.	.	.
.	.	.	16c/	.	16d/	.	.	.	.	.	.	.	.	.	.	.	.	.	.	.	.	.	.	.	.	.	.	.	.	.
8F#\	.	.	16A/	.	16f#/	.	8cc\	.	8A\L	A-	.	.	4d\	A-	.	.	8a\L	A-	.	8cc\L	A-	.	.	.	.	.	.	.	.	.
.	.	.	16c/JJ	.	16a/JJ	.	.	.	.	.	.	.	.	.	.	.	.	.	.	.	.	.	.	.	.	.	.	.	.	.
8D\	.	.	8d\L	.	8b\L	.	8dd\	.	8F#\J	.	.	.	.	.	.	.	8b\J	.	.	8dd\J	.	.	.	.	.	.	.	.	.	.
8D\J	.	.	8d\J	.	8a\J	.	8cc\J	.	8D\	-gnus	.	.	8d\	-gnus	.	.	8a\	-gnus	.	8cc\	-gnus	.	.	.	.	.	.	.	.	.
=20	=20	=20	=20	=20	=20	=20	=20	=20	=20	=20	=20	=20	=20	=20	=20	=20	=20	=20	=20	=20	=20	=20	=20	=20	=20	=20	=20	=20	=20	=20
4G\	4	.	4d\	.	4a/	.	4cc\	.	4G\	De-	.	.	4d\	De-	.	.	4a\	de-	.	4cc\	De-	.	4d/	.	4a\	.	2.r	.	2.r	.
8GG/L	9	.	4d\	.	4g/	.	4b\	.	4GG/	-i	.	.	4d\	-i	.	.	4g\	-i	.	4b\	-i	.	4g\	.	4b\	.	.	.	.	.
8D/	.	.	.	.	.	.	.	.	.	.	.	.	.	.	.	.	.	.	.	.	.	.	.	.	.	.	.	.	.	.
8BB/	.	.	4r	.	4r	.	4r	.	4r	.	.	.	4r	.	.	.	4r	.	.	4r	.	.	4r	.	4r	.	.	.	.	.
8GG/J	.	.	.	.	.	.	.	.	.	.	.	.	.	.	.	.	.	.	.	.	.	.	.	.	.	.	.	.	.	.
!	!	!	!LO:LB:g=original	!	!	!	!	!	!	!	!	!	!	!	!	!	!	!	!	!	!	!	!	!	!	!	!	!	!	!
=21	=21	=21	=21	=21	=21	=21	=21	=21	=21	=21	=21	=21	=21	=21	=21	=21	=21	=21	=21	=21	=21	=21	=21	=21	=21	=21	=21	=21	=21	=21
!LO:TX:t=P:problem:f = fort	!	!	!	!	!	!	!	!	!	!	!	!	!	!	!	!	!	!	!	!	!	!	!LO:TX:a:t=2	!	!	!	!	!	!	!
*tremolo	*	*	*	*	*	*	*	*	*	*	*	*	*	*	*	*	*	*	*	*	*	*	*	*	*	*	*	*	*	*
8C/L	3	f	16r	f	8G/ 8e	.	16r	.	4C/	qui	.	.	4c\	qui	.	.	4g\	qui	.	4ee\	qui	.	2.r	.	2.r	.	2.cc\	.	2.ee\	.
.	.	.	(16e\LL	.	.	.	(16ee\LL	.	.	.	.	.	.	.	.	.	.	.	.	.	.	.	.	.	.	.	.	.	.	.
8C/	.	.	16d#X\	.	4G/ 4e	.	16dd#X\	.	.	.	.	.	.	.	.	.	.	.	.	.	.	.	.	.	.	.	.	.	.	.
.	.	.	16e\JJ)	.	.	.	16ee\JJ)	.	.	.	.	.	.	.	.	.	.	.	.	.	.	.	.	.	.	.	.	.	.	.
!	!	!	!	!	!	!	!	!	!	!	!	!	!	!	!	!	!	!	!	!LO:LB:g=original	!	!	!	!	!	!	!	!	!	!
8C/	.	.	16r	.	.	.	16r	.	4r	.	.	.	4r	.	.	.	4r	.	.	4r	.	.	.	.	.	.	.	.	.	.
.	.	.	(16c\LL	.	.	.	(16cc\LL	.	.	.	.	.	.	.	.	.	.	.	.	.	.	.	.	.	.	.	.	.	.	.
!	!	!	!	!	!LO:TX:t=P:problem:zbędne powtórzenie jednej ćwierćnuty 	!	!	!	!	!	!	!	!	!	!	!	!	!	!	!	!	!	!	!	!	!	!	!	!	!
!	!	!	!	!	!LO:N:vis=4	!	!	!	!	!	!	!	!	!	!	!	!	!	!	!	!	!	!	!	!	!	!	!	!	!
8C/	.	.	16B\	.	8G/ 8e	.	16b\	.	.	.	.	.	.	.	.	.	.	.	.	.	.	.	.	.	.	.	.	.	.	.
.	.	.	16c\JJ)	.	.	.	16cc\JJ)	.	.	.	.	.	.	.	.	.	.	.	.	.	.	.	.	.	.	.	.	.	.	.
!	!	!	!	!	!LO:N:vis=4	!	!	!	!	!	!	!	!	!	!	!	!	!	!	!	!	!	!	!	!	!	!	!	!	!
8C/	.	.	(16g\LL	.	8G/ 8e	.	(16gg\LL	.	4C/	qui	.	.	4c\	qui	.	.	4g\	qui	.	4ee\	qui	.	.	.	.	.	.	.	.	.
.	.	.	16e\)	.	.	.	16ee\)	.	.	.	.	.	.	.	.	.	.	.	.	.	.	.	.	.	.	.	.	.	.	.
8C/J	.	.	(16e\	.	8G/ 8e	.	(16ee\	.	.	.	.	.	.	.	.	.	.	.	.	.	.	.	.	.	.	.	.	.	.	.
.	.	.	16c\JJ)	.	.	.	16cc\JJ)	.	.	.	.	.	.	.	.	.	.	.	.	.	.	.	.	.	.	.	.	.	.	.
!	!	!	!	!	!LO:LB:g=original	!	!	!	!	!	!	!	!	!	!	!	!	!	!	!	!	!	!	!	!	!	!	!	!	!
!	!	!	!	!	!	!	!	!	!LO:LB:g=original	!	!	!	!	!	!	!	!	!	!	!	!	!	!	!	!	!	!	!	!	!
=22	=22	=22	=22	=22	=22	=22	=22	=22	=22	=22	=22	=22	=22	=22	=22	=22	=22	=22	=22	=22	=22	=22	=22	=22	=22	=22	=22	=22	=22	=22
8BB/L	6 3	.	16r	.	8G/ 8d	.	16r	.	2G\	tol-	.	.	2B\	tol-	.	.	2g\	tol-	.	2dd\	tol-	.	2.r	.	2.r	.	2.b\	.	2.dd\	.
.	.	.	(16dn\LL	.	.	.	(16dd\LL	.	.	.	.	.	.	.	.	.	.	.	.	.	.	.	.	.	.	.	.	.	.	.
8BB/	.	.	16c\	.	4G/ 4d	.	16cc#X\	.	.	.	.	.	.	.	.	.	.	.	.	.	.	.	.	.	.	.	.	.	.	.
.	.	.	16d\JJ)	.	.	.	16dd\JJ)	.	.	.	.	.	.	.	.	.	.	.	.	.	.	.	.	.	.	.	.	.	.	.
8BB/	.	.	16r	.	.	.	16r	.	.	.	.	.	.	.	.	.	.	.	.	.	.	.	.	.	.	.	.	.	.	.
.	.	.	16G/LL	.	.	.	(16g/LL	.	.	.	.	.	.	.	.	.	.	.	.	.	.	.	.	.	.	.	.	.	.	.
8BB/	.	.	16B/	.	4G/ 4d	.	16b/	.	.	.	.	.	.	.	.	.	.	.	.	.	.	.	.	.	.	.	.	.	.	.
.	.	.	16d/JJ	.	.	.	16dd/JJ)	.	.	.	.	.	.	.	.	.	.	.	.	.	.	.	.	.	.	.	.	.	.	.
8BB/	.	.	16g\LL	.	.	.	(16gg\LL	.	4G\	-lis	.	.	4B\	-lis	.	.	4g\	-lis	.	4dd\	-lis	.	.	.	.	.	.	.	.	.
.	.	.	16d\	.	.	.	16dd\)	.	.	.	.	.	.	.	.	.	.	.	.	.	.	.	.	.	.	.	.	.	.	.
8BB/J	.	.	16d\	.	8G/ 8d	.	(16dd\	.	.	.	.	.	.	.	.	.	.	.	.	.	.	.	.	.	.	.	.	.	.	.
.	.	.	16B\JJ	.	.	.	16b\JJ)	.	.	.	.	.	.	.	.	.	.	.	.	.	.	.	.	.	.	.	.	.	.	.
*Xtremolo	*	*	*	*	*	*	*	*	*	*	*	*	*	*	*	*	*	*	*	*	*	*	*	*	*	*	*	*	*	*
!LO:LB:g=original	!	!	!	!	!	!	!	!	!	!	!	!	!	!	!	!	!	!	!	!	!	!	!	!	!	!	!	!	!	!
=23	=23	=23	=23	=23	=23	=23	=23	=23	=23	=23	=23	=23	=23	=23	=23	=23	=23	=23	=23	=23	=23	=23	=23	=23	=23	=23	=23	=23	=23	=23
!LO:TX:t=P:problem:mixed beam	!	!	!	!	!	!	!	!	!	!	!	!	!	!	!	!	!	!	!	!	!	!	!	!	!	!	!LO:TX:t=P:problem:p = pia	!	!	!
8D\L	7 5	.	(16A\LL	.	16d'/LL	.	16dd'\LL	.	4F#\	pec-	.	.	4d\	pec-	.	.	4a\	pec-	.	4cc\	pec-	.	2d/	.	2a\	.	2cc\	p	2ff#\	.
.	.	.	16d\	.	16d'/	.	16dd'\	.	.	.	.	.	.	.	.	.	.	.	.	.	.	.	.	.	.	.	.	.	.	.
8A\	.	.	16c\	.	16f#'/	.	16ff#'\	.	.	.	.	.	.	.	.	.	.	.	.	.	.	.	.	.	.	.	.	.	.	.
.	.	.	16d\JJ)	.	16f#'/JJ	.	16ff#'\JJ	.	.	.	.	.	.	.	.	.	.	.	.	.	.	.	.	.	.	.	.	.	.	.
8F#\	.	.	(16A\LL	.	16a'/LL	.	16aa'\LL	.	4F#\	-ca-	.	.	4d\	-ca-	.	.	4a\	-ca-	.	4cc\	-ca-	.	.	.	.	.	.	.	.	.
.	.	.	16d\	.	16a'/	.	16aa'\	.	.	.	.	.	.	.	.	.	.	.	.	.	.	.	.	.	.	.	.	.	.	.
8D\	.	.	16c\	.	16cc'/	.	16cccn'\	.	.	.	.	.	.	.	.	.	.	.	.	.	.	.	.	.	.	.	.	.	.	.
.	.	.	16d\JJ)	.	16cc'/JJ	.	16ccc'\JJ	.	.	.	.	.	.	.	.	.	.	.	.	.	.	.	.	.	.	.	.	.	.	.
8G\	3	.	(16G\LL	.	16b'/LL	.	16bb'\LL	.	4G\	-ta	.	.	4d\	-ta	.	.	4g\	-ta	.	4b\	-ta	.	4g\	.	4b\	.	4b\	.	4gg\	.
.	.	.	16d\	.	16b'/	.	16bb'\	.	.	.	.	.	.	.	.	.	.	.	.	.	.	.	.	.	.	.	.	.	.	.
8GG/J	.	.	16B\	.	16g'/	.	16gg'\	.	.	.	.	.	.	.	.	.	.	.	.	.	.	.	.	.	.	.	.	.	.	.
.	.	.	16d\JJ)	.	16g'/JJ	.	16gg'\JJ	.	.	.	.	.	.	.	.	.	.	.	.	.	.	.	.	.	.	.	.	.	.	.
!	!	!	!	!	!	!	!LO:LB:g=original	!	!	!	!	!	!	!	!	!	!	!	!	!	!	!	!	!	!	!	!	!	!	!
=24	=24	=24	=24	=24	=24	=24	=24	=24	=24	=24	=24	=24	=24	=24	=24	=24	=24	=24	=24	=24	=24	=24	=24	=24	=24	=24	=24	=24	=24	=24
!LO:TX:t=P:problem:p = pia	!	!	!	!	!	!	!	!	!	!	!	!	!	!	!	!	!	!	!	!	!	!	!	!	!	!	!	!	!	!
!LO:TX:t=P:problem:mixed beam	!	!	!LO:TX:t=P:problem:p = pia	!	!	!LO:DY:a	!LO:TX:t=P:problem:p = piano	!	!LO:TX:t=P:problem:p = pia	!	!	!LO:DY:a	!LO:TX:t=P:problem:p = pia	!	!	!LO:DY:a	!	!	!	!	!	!	!LO:TX:t=P:problem:p = pia	!LO:DY:a	!LO:TX:t=P:problem:p = pia	!	!	!	!	!
8D\L	7 5	p	16A\LL	p	16d'/LL	p	16dd'\LL	p	2F#\	mun-	.	p	2d\	mun-	.	p	2a\	mun-	.	2cc\	mun-	.	2d/	p	2a\	p	2cc\	.	2ff#\	p
.	.	.	16d\	.	16d'/	.	16dd'\	.	.	.	.	.	.	.	.	.	.	.	.	.	.	.	.	.	.	.	.	.	.	.
8A\	.	.	16c\	.	16f#'/	.	16ff#'\	.	.	.	.	.	.	.	.	.	.	.	.	.	.	.	.	.	.	.	.	.	.	.
.	.	.	16d\JJ	.	16f#'/JJ	.	16ff#'\JJ	.	.	.	.	.	.	.	.	.	.	.	.	.	.	.	.	.	.	.	.	.	.	.
8F#\	.	.	16A\LL	.	16a'/LL	.	16aa'\LL	.	.	.	.	.	.	.	.	.	.	.	.	.	.	.	.	.	.	.	.	.	.	.
.	.	.	16d\	.	16a'/	.	16aa'\	.	.	.	.	.	.	.	.	.	.	.	.	.	.	.	.	.	.	.	.	.	.	.
8D\	.	.	16c\	.	16cc'/	.	16ccc'\	.	.	.	.	.	.	.	.	.	.	.	.	.	.	.	.	.	.	.	.	.	.	.
.	.	.	16d\JJ	.	16cc'/JJ	.	16ccc'\JJ	.	.	.	.	.	.	.	.	.	.	.	.	.	.	.	.	.	.	.	.	.	.	.
8G\	3	.	16G\LL	.	16b'/LL	.	16bb'\LL	.	4G\	-di	.	.	4d\	-di	.	.	4g\	-di	.	4b\	-di	.	4g\	.	4b\	.	4b\	.	4gg\	.
.	.	.	16d\	.	16b'/	.	16bb'\	.	.	.	.	.	.	.	.	.	.	.	.	.	.	.	.	.	.	.	.	.	.	.
8GG/J	.	.	16B\	.	16g'/	.	16gg'\	.	.	.	.	.	.	.	.	.	.	.	.	.	.	.	.	.	.	.	.	.	.	.
!	!	!	!LO:TX:t=P:problem:f = fo	!	!	!	!	!	!	!	!	!	!	!	!	!	!	!	!	!	!	!	!	!	!	!	!	!	!	!
.	.	.	16d\JJ	f	16g'/JJ	.	16gg'\JJ	.	.	.	.	.	.	.	.	.	.	.	.	.	.	.	.	.	.	.	.	.	.	.
=25	=25	=25	=25	=25	=25	=25	=25	=25	=25	=25	=25	=25	=25	=25	=25	=25	=25	=25	=25	=25	=25	=25	=25	=25	=25	=25	=25	=25	=25	=25
!	!	!	!LO:TX:t=P:problem:mixed beam	!	!LO:TX:t=P:problem:f = f	!LO:DY:a	!LO:TX:t=P:problem:f = forto	!	!LO:TX:t=P:problem:f = forto	!	!	!LO:DY:a	!LO:TX:t=P:problem:f = forto	!	!	!LO:DY:a	!	!	!	!	!	!	!	!	!	!	!	!	!	!
*tremolo	*	*	*	*	*	*	*	*	*	*	*	*	*	*	*	*	*	*	*	*	*	*	*	*	*	*	*	*	*	*
8C/L	.	f	8C/L	.	8G/ 8g	f	(16ee\LL	f	4r	.	.	f	4r	.	.	f	4r	.	.	4r	.	.	4r	.	4r	.	4r	.	4r	.
.	.	.	.	.	.	.	16dd#X\	.	.	.	.	.	.	.	.	.	.	.	.	.	.	.	.	.	.	.	.	.	.	.
8C/	.	.	8c\J	rfz	4g/	.	16ee\	.	.	.	.	.	.	.	.	.	.	.	.	.	.	.	.	.	.	.	.	.	.	.
.	.	.	.	.	.	.	16dd#\JJ)	.	.	.	.	.	.	.	.	.	.	.	.	.	.	.	.	.	.	.	.	.	.	.
!	!	!	!	!	!	!	!	!	!	!	!	!	!	!	!	!	!	!	!	!	!	!	!	!	!	!	!	!LO:DY:a	!	!
*	*	*	*tremolo	*	*	*	*	*	*	*	*	*	*	*	*	*	*	*	*	*	*	*	*	*	*	*	*	*	*	*
8C/	.	.	8c\L	.	.	.	(16ee\LL	.	(4c\	mi-	.	.	2c\	mi-	.	.	(4g\	mi-	.	(4ee\	mi-	.	4r	.	4r	.	4cc\	f	4ee\	f
.	.	.	.	.	.	.	16ff#\	.	.	.	.	.	.	.	.	.	.	.	.	.	.	.	.	.	.	.	.	.	.	.
8C/J	.	.	8c\	.	8g/	.	16gg\)	.	.	.	.	.	.	.	.	.	.	.	.	.	.	.	.	.	.	.	.	.	.	.
.	.	.	.	.	.	.	16ee'\JJ	.	.	.	.	.	.	.	.	.	.	.	.	.	.	.	.	.	.	.	.	.	.	.
*Xtremolo	*	*	*	*	*	*	*	*	*	*	*	*	*	*	*	*	*	*	*	*	*	*	*	*	*	*	*	*	*	*
!	!	!	!	!	!	!	!	!	!	!	!	!	!	!	!	!	!	!	!	!	!	!	!LO:TX:t=P:problem:f = f.	!LO:DY:a	!	!	!	!	!	!
8AA/L	.	.	8c\	.	8d/L 8cc	.	(16ff#\LL	.	4A\)	.	.	.	.	.	.	.	4a\)	.	.	4ff#\)	.	.	4d/	f	4a\	.	4cc\	.	4ff#\	.
.	.	.	.	.	.	.	16gg\	.	.	.	.	.	.	.	.	.	.	.	.	.	.	.	.	.	.	.	.	.	.	.
8AA/J	.	.	8c\J	.	8d/J 8cc	.	16aa\)	.	.	.	.	.	.	.	.	.	.	.	.	.	.	.	.	.	.	.	.	.	.	.
.	.	.	.	.	.	.	16ff#'\JJ	.	.	.	.	.	.	.	.	.	.	.	.	.	.	.	.	.	.	.	.	.	.	.
*	*	*	*Xtremolo	*	*	*	*	*	*	*	*	*	*	*	*	*	*	*	*	*	*	*	*	*	*	*	*	*	*	*
!	!	!	!LO:LB:g=original	!	!	!	!	!	!	!	!	!	!	!	!	!	!	!	!	!	!	!	!	!	!	!	!	!	!	!
=26	=26	=26	=26	=26	=26	=26	=26	=26	=26	=26	=26	=26	=26	=26	=26	=26	=26	=26	=26	=26	=26	=26	=26	=26	=26	=26	=26	=26	=26	=26
!	!	!	!	!	!	!LO:DY:a	!LO:TX:t=P:problem:p = piano	!	!	!	!	!	!	!	!	!	!	!	!	!	!	!	!	!	!	!	!	!	!	!
4GG/	.	.	4G/ 4d	.	4d/ 4b	p	(16gg\LL	p	4G\	-se-	.	.	4B\	-se-	.	.	4b\	-se-	.	4gg\	-se-	.	4g\	.	4b\	.	4b\	.	4gg\	.
.	.	.	.	.	.	.	16aa\	.	.	.	.	.	.	.	.	.	.	.	.	.	.	.	.	.	.	.	.	.	.	.
.	.	.	.	.	.	.	16bb\	.	.	.	.	.	.	.	.	.	.	.	.	.	.	.	.	.	.	.	.	.	.	.
.	.	.	.	.	.	.	16aa\JJ)	.	.	.	.	.	.	.	.	.	.	.	.	.	.	.	.	.	.	.	.	.	.	.
!	!	!	!	!	!	!	!	!	!	!	!	!	!	!	!	!	!	!	!	!	!	!	!	!	!	!	!LO:TX:t=P:problem:p = pia	!	!	!
4r	.	.	4r	.	4r	.	(16gg\LL	.	4r	.	.	.	4r	.	.	.	4r	.	.	4r	.	.	4r	.	4r	.	4r	p	4r	.
.	.	.	.	.	.	.	16ff#\	.	.	.	.	.	.	.	.	.	.	.	.	.	.	.	.	.	.	.	.	.	.	.
.	.	.	.	.	.	.	16ee\	.	.	.	.	.	.	.	.	.	.	.	.	.	.	.	.	.	.	.	.	.	.	.
.	.	.	.	.	.	.	16dd\JJ	.	.	.	.	.	.	.	.	.	.	.	.	.	.	.	.	.	.	.	.	.	.	.
4r	.	.	4r	.	(16e/LL	.	16cc\LL	.	4r	.	.	.	4r	.	.	.	4r	.	.	4r	.	.	4r	.	4r	.	4r	.	4r	.
.	.	.	.	.	16d/	.	16b\	.	.	.	.	.	.	.	.	.	.	.	.	.	.	.	.	.	.	.	.	.	.	.
.	.	.	.	.	16c/)	.	16a\)	.	.	.	.	.	.	.	.	.	.	.	.	.	.	.	.	.	.	.	.	.	.	.
.	.	.	.	.	16B/JJ	.	16g#X\JJ	.	.	.	.	.	.	.	.	.	.	.	.	.	.	.	.	.	.	.	.	.	.	.
!	!	!	!	!	!	!	!	!	!	!	!	!	!	!	!	!	!	!	!	!	!	!	!LO:LB:g=original	!	!	!	!	!	!	!
=27	=27	=27	=27	=27	=27	=27	=27	=27	=27	=27	=27	=27	=27	=27	=27	=27	=27	=27	=27	=27	=27	=27	=27	=27	=27	=27	=27	=27	=27	=27
!	!	!	!	!	!	!LO:DY:a	!LO:TX:t=P:problem:f = forto	!	!	!	!	!	!	!	!	!	!	!	!	!	!	!	!	!	!	!	!	!	!	!
8C/L	.	.	8e\L	.	8c/L	f	16a\LL	f	8C/	-re-	.	.	8e\	-re-	.	.	8cc\	-re-	.	8ee\	-re-	.	4r	.	4r	.	8cc\L	.	8ee\L	.
.	.	.	.	.	.	.	16ee\	.	.	.	.	.	.	.	.	.	.	.	.	.	.	.	.	.	.	.	.	.	.	.
8E/J	.	.	8e\J	.	(16A/L	.	16cc\	.	8E\	-re	.	.	8e\	-re	.	.	8a\	-re	.	8cc\	-re	.	.	.	.	.	8aa\J	.	8ccc\J	.
.	.	.	.	.	16c/JJ)	.	16a\JJ	.	.	.	.	.	.	.	.	.	.	.	.	.	.	.	.	.	.	.	.	.	.	.
4D\	4	.	4d\	.	4B/	.	4gn/	.	4D\	no-	.	.	4d\	no-	.	.	4g\	no-	.	4b\	no-	.	4g\	.	4b\	.	4gg\	.	4bb\	.
4DD/	3	.	4d\	.	4A/	.	4f#/	.	4D\	-bis	.	.	4d\	-bis	.	.	4f#\	-bis	.	4a\	-bis	.	4d/	.	4a\	.	4ff#\	.	4aa\	.
!	!	!	!	!	!LO:LB:g=original	!	!	!	!	!	!	!	!	!	!	!	!	!	!	!	!	!	!	!	!	!	!	!	!	!
!	!	!	!	!	!	!	!	!	!	!	!	!	!	!	!	!	!	!	!	!	!	!	!	!	!LO:LB:g=original	!	!	!	!	!
!	!	!	!	!	!	!	!	!	!	!	!	!	!	!	!	!	!	!	!	!	!	!	!	!	!	!	!LO:LB:g=original	!	!	!
=28||	=28||	=28||	=28||	=28||	=28||	=28||	=28||	=28||	=28||	=28||	=28||	=28||	=28||	=28||	=28||	=28||	=28||	=28||	=28||	=28||	=28||	=28||	=28||	=28||	=28||	=28||	=28||	=28||	=28||	=28||
*M2/4	*	*	*M2/4	*	*M2/4	*	*M2/4	*	*M2/4	*	*	*	*M2/4	*	*	*	*M2/4	*	*	*M2/4	*	*	*M2/4	*	*M2/4	*	*M2/4	*	*M2/4	*
!LO:TX:b:t=Solo	!	!	!	!	!	!	!	!	!	!	!	!	!	!	!	!	!	!	!	!	!	!	!	!	!	!	!	!	!	!
!LO:TX:a:t=Allegretto	!	!	!LO:TX:a:t=Allegretto	!	!LO:TX:t=P:problem:p = piano	!	!LO:TX:t=P:problem:p = piano	!	!	!	!	!	!	!	!	!	!	!	!	!	!	!	!	!	!	!	!	!	!	!
!LO:TX:t=P:problem:mixed beam	!	!	!LO:TX:t=P:problem:p = pia	!	!LO:TX:a:t=Allegretto	!	!LO:TX:a:t=Allegretto	!	!LO:TX:a:t=2	!	!	!	!LO:TX:a:t=2	!	!	!	!	!	!	!LO:TX:a:t=Allegretto	!	!	!	!	!LO:TX:a:t=Allegretto	!	!	!	!LO:TX:a:t=alleg.	!
8GG'/L	.	.	4d\	p	(8.b\L	p	(8.dd\L	p	2r	.	.	.	2r	.	.	.	(8.b\L	mi-	.	(8.dd\L	mi-	.	4G/	.	4g\	.	2r	.	2r	.
!LO:TX:t=P:problem:p = piano	!	!	!	!	!	!	!	!	!	!	!	!	!	!	!	!	!	!	!	!	!	!	!	!	!	!	!	!	!	!
8G'\	.	p	.	.	.	.	.	.	.	.	.	.	.	.	.	.	.	.	.	.	.	.	.	.	.	.	.	.	.	.
.	.	.	.	.	16cc\Jk)	.	16ee\Jk)	.	.	.	.	.	.	.	.	.	16cc\Jk)	.	.	16ee\Jk)	.	.	.	.	.	.	.	.	.	.
8GG'/J	.	.	8d\	.	16b'\LL	.	16dd\LL	.	.	.	.	.	.	.	.	.	8b\	-se-	.	8dd\	-se-	.	4r	.	4r	.	.	.	.	.
.	.	.	.	.	16b'\	.	16gg'\	.	.	.	.	.	.	.	.	.	.	.	.	.	.	.	.	.	.	.	.	.	.	.
8r	.	.	8r	.	16b'\	.	16gg'\	.	.	.	.	.	.	.	.	.	8r	.	.	8r	.	.	.	.	.	.	.	.	.	.
.	.	.	.	.	16b'\JJ	.	16gg'\JJ	.	.	.	.	.	.	.	.	.	.	.	.	.	.	.	.	.	.	.	.	.	.	.
!	!	!	!	!	!	!	!LO:LB:g=original	!	!	!	!	!	!	!	!	!	!	!	!	!	!	!	!	!	!	!	!	!	!	!
=29	=29	=29	=29	=29	=29	=29	=29	=29	=29	=29	=29	=29	=29	=29	=29	=29	=29	=29	=29	=29	=29	=29	=29	=29	=29	=29	=29	=29	=29	=29
!LO:TX:t=P:problem:mixed beam	!	!	!	!	!	!	!	!	!	!	!	!	!	!	!	!	!	!	!	!	!	!	!	!	!	!	!	!	!	!
8GG'/L	.	.	4d\	.	(8.g/L	.	8.b\L	.	2r	.	.	.	2r	.	.	.	8.g\L	-re-	.	(8.b\L	-re-	.	4G/	.	4g\	.	2r	.	2r	.
8G'\	.	.	.	.	.	.	.	.	.	.	.	.	.	.	.	.	.	.	.	.	.	.	.	.	.	.	.	.	.	.
.	.	.	.	.	16a/Jk)	.	16cc\Jk	.	.	.	.	.	.	.	.	.	16a\Jk	.	.	16cc\Jk)	.	.	.	.	.	.	.	.	.	.
!	!	!	!	!	!	!	!	!	!	!	!	!	!	!	!	!	!LO:LB:g=original	!	!	!	!	!	!	!	!	!	!	!	!	!
8GG'/J	.	.	8d\	.	(16g/LL	.	(16b\LL	.	.	.	.	.	.	.	.	.	8g\	-re	.	8b\	-re	.	4r	.	4r	.	.	.	.	.
.	.	.	.	.	16b/)	.	16dd\)	.	.	.	.	.	.	.	.	.	.	.	.	.	.	.	.	.	.	.	.	.	.	.
8r	.	.	8r	.	16b'/	.	16dd'\	.	.	.	.	.	.	.	.	.	8r	.	.	8r	.	.	.	.	.	.	.	.	.	.
!	!	!	!	!	!	!	!LO:TX:t=P:problem:f = forto	!	!	!	!	!	!	!	!	!	!	!	!	!	!	!	!	!	!	!	!	!	!	!
.	.	.	.	.	16b'/JJ	.	16dd'\JJ	f	.	.	.	.	.	.	.	.	.	.	.	.	.	.	.	.	.	.	.	.	.	.
!LO:LB:g=original	!	!	!	!	!	!	!	!	!	!	!	!	!	!	!	!	!	!	!	!	!	!	!	!	!	!	!	!	!	!
=30	=30	=30	=30	=30	=30	=30	=30	=30	=30	=30	=30	=30	=30	=30	=30	=30	=30	=30	=30	=30	=30	=30	=30	=30	=30	=30	=30	=30	=30	=30
!LO:TX:b:t=Tutti	!	!	!	!	!	!LO:DY:a	!	!	!LO:TX:a:t=Allegretto	!	!	!	!	!	!	!	!	!	!	!	!	!	!	!	!	!	!	!LO:DY:a	!	!
8GG'/L	8	.	16g'\LL	f	16G'/LL	f	16g'/LL	.	8G\L	Chris-	.	.	8G\L	Chris-	.	.	8g\	mi-	.	8g\	mi-	.	2r	.	2r	.	8g'/L	f	8gg\L	.
.	.	.	16g'\	.	16G'/	.	16g'/	.	.	.	.	.	.	.	.	.	.	.	.	.	.	.	.	.	.	.	.	.	.	.
8AA'/	8	.	16a'\	.	16A'/	.	16a'/	.	8A\J	.	.	.	8A\J	.	.	.	8a\	-se-	.	8a\	-se-	.	.	.	.	.	8a'/	.	8aa\	.
.	.	.	16a'\JJ	.	16A'/JJ	.	16a'/JJ	.	.	.	.	.	.	.	.	.	.	.	.	.	.	.	.	.	.	.	.	.	.	.
8BB'/	8	f	16b'\LL	.	16B'/LL	.	16b'\LL	.	8B\	-te	.	.	8B\	-te	.	.	8b\	-re-	.	8b\	-re-	.	.	.	.	.	8b'/	.	8bb'\	.
.	.	.	16b'\	.	16B'/	.	16b'\	.	.	.	.	.	.	.	.	.	.	.	.	.	.	.	.	.	.	.	.	.	.	.
8D'/J	8	.	16dd'\	.	16d'/	.	16dd'\	.	8d\	ex-	.	.	8d\	ex-	.	.	8dd\	-re	.	8dd\	-re	.	.	.	.	.	8dd'/J	.	8ddd'\J	.
.	.	.	16dd'\JJ	.	16d'/JJ	.	16dd'\JJ	.	.	.	.	.	.	.	.	.	.	.	.	.	.	.	.	.	.	.	.	.	.	.
=31	=31	=31	=31	=31	=31	=31	=31	=31	=31	=31	=31	=31	=31	=31	=31	=31	=31	=31	=31	=31	=31	=31	=31	=31	=31	=31	=31	=31	=31	=31
8BB'/L	8	.	16b'\LL	.	16B'/LL	.	16b'\LL	.	8B\	-au-	.	.	8B\	-au-	.	.	8b\L	no-	.	(8b\L	no-	.	8g\L	.	8b\L	.	8b/L	.	8bb'\L	.
.	.	.	16b'\	.	16B'/	.	16b'\	.	.	.	.	.	.	.	.	.	.	.	.	.	.	.	.	.	.	.	.	.	.	.
8AA'/	8	.	16a'\	.	16A'/	.	16a'\	.	8A\	-di	.	.	8A\	-di	.	.	8a\J	.	.	8a\J)	.	.	8d\J	.	8a\J	.	8a/J	.	8aa'\J	.
.	.	.	16a'\JJ	.	16A'/JJ	.	16a'\JJ	.	.	.	.	.	.	.	.	.	.	.	.	.	.	.	.	.	.	.	.	.	.	.
!	!	!	!	!	!	!	!	!	!	!	!	!	!	!	!	!	!	!	!	!LO:LB:g=original	!	!	!	!	!	!	!	!	!	!
8GG'/J	8	.	4g\	.	4G/	.	4g/	.	8G\	nos	.	.	8G/	nos	.	.	8g\	-bis	.	8g\	-bis	.	4G/	.	4g\	.	4g/	.	4gg\	.
8r	.	.	.	.	.	.	.	.	8r	.	.	.	8r	.	.	.	8r	.	.	8r	.	.	.	.	.	.	.	.	.	.
=32	=32	=32	=32	=32	=32	=32	=32	=32	=32	=32	=32	=32	=32	=32	=32	=32	=32	=32	=32	=32	=32	=32	=32	=32	=32	=32	=32	=32	=32	=32
!LO:TX:b:t=Solo	!	!	!	!	!	!	!	!	!	!	!	!	!	!	!	!	!	!	!	!	!	!	!	!	!	!	!	!	!	!
!LO:TX:t=P:problem:mixed beam	!	!LO:DY:a	!LO:TX:t=P:problem:p = pia	!	!	!	!LO:TX:t=P:problem:p = pia	!	!LO:TX:a:t=2	!	!	!	!LO:TX:a:t=2	!	!	!	!	!	!	!	!	!	!	!	!LO:TX:t=P:problem:p = pia	!	!	!	!LO:TX:a:t=2	!
8GG'\L	.	p	4d\	p	(8.b\L	p	8.dd\L	p	2r	.	.	.	2r	.	.	.	(8.b\L	mi-	.	(8.dd\L	mi-	.	4b\	.	4dd\	p	2r	.	2r	.
8G'/	.	.	.	.	.	.	.	.	.	.	.	.	.	.	.	.	.	.	.	.	.	.	.	.	.	.	.	.	.	.
.	.	.	.	.	16cc\Jk)	.	16ee\Jk	.	.	.	.	.	.	.	.	.	16cc\Jk)	.	.	16ee\Jk)	.	.	.	.	.	.	.	.	.	.
8GG'/J	.	.	8d\	.	16b'\LL	.	(16dd\LL	.	.	.	.	.	.	.	.	.	8b\	-se-	.	8dd\	-se-	.	8b\	.	8dd\	.	.	.	.	.
.	.	.	.	.	16b'\	.	16gg\)	.	.	.	.	.	.	.	.	.	.	.	.	.	.	.	.	.	.	.	.	.	.	.
8r	.	.	8r	.	16b'\	.	16gg'\	.	.	.	.	.	.	.	.	.	8r	.	.	8r	.	.	8r	.	8r	.	.	.	.	.
.	.	.	.	.	16b'\JJ	.	16gg'\JJ	.	.	.	.	.	.	.	.	.	.	.	.	.	.	.	.	.	.	.	.	.	.	.
=33	=33	=33	=33	=33	=33	=33	=33	=33	=33	=33	=33	=33	=33	=33	=33	=33	=33	=33	=33	=33	=33	=33	=33	=33	=33	=33	=33	=33	=33	=33
!LO:TX:t=P:problem:mixed beam	!	!	!	!	!	!	!	!	!	!	!	!	!	!	!	!	!	!	!	!	!	!	!LO:TX:t=P:problem:p = p.	!LO:DY:a	!	!	!	!	!	!
8GG'/L	.	.	4d\	.	8.g/L	.	8.b\L	.	2r	.	.	.	2r	.	.	.	(8.g\L	-re-	.	8.b\L	-re-	.	4g\	p	4b\	.	2r	.	2r	.
8G'\	.	.	.	.	.	.	.	.	.	.	.	.	.	.	.	.	.	.	.	.	.	.	.	.	.	.	.	.	.	.
.	.	.	.	.	16a/Jk	.	16cc\Jk	.	.	.	.	.	.	.	.	.	16a\Jk)	.	.	16cc\Jk	.	.	.	.	.	.	.	.	.	.
8GG'/J	.	.	8d\	.	(16g/LL	.	(16b\LL	.	.	.	.	.	.	.	.	.	8g\	-re	.	8b\	-re	.	8g\	.	8b\	.	.	.	.	.
.	.	.	.	.	16b/)	.	16dd\)	.	.	.	.	.	.	.	.	.	.	.	.	.	.	.	.	.	.	.	.	.	.	.
8r	.	.	8r	.	16b'/	.	16dd'\	.	.	.	.	.	.	.	.	.	8r	.	.	8r	.	.	8r	.	8r	.	.	.	.	.
.	.	.	.	.	16b'/JJ	.	16dd'\JJ	.	.	.	.	.	.	.	.	.	.	.	.	.	.	.	.	.	.	.	.	.	.	.
=34	=34	=34	=34	=34	=34	=34	=34	=34	=34	=34	=34	=34	=34	=34	=34	=34	=34	=34	=34	=34	=34	=34	=34	=34	=34	=34	=34	=34	=34	=34
!LO:TX:b:t=Tutti	!	!LO:DY:a	!	!	!	!LO:DY:a	!LO:TX:t=P:problem:f = forto	!	!	!	!	!	!	!	!	!	!	!	!	!	!	!	!	!	!	!	!	!	!	!
8GG'/L	.	f	16g\LL	f	16G'/LL	f	16g'/LL	f	8G\L	Chris-	.	.	8G/L	Chris-	.	.	8g\	mi-	.	8g\	mi-	.	4G/	.	4g\	.	8g'/L	.	8gg'\L	.
.	.	.	16g\	.	16G'/	.	16g'/	.	.	.	.	.	.	.	.	.	.	.	.	.	.	.	.	.	.	.	.	.	.	.
8AA'/	.	.	16a\	.	16A'/	.	16a'/	.	8A\J	.	.	.	8A/J	.	.	.	8a\	-se-	.	8a\	-se-	.	.	.	.	.	8a'/	.	8aa'\	.
.	.	.	16a\JJ	.	16A'/JJ	.	16a'/JJ	.	.	.	.	.	.	.	.	.	.	.	.	.	.	.	.	.	.	.	.	.	.	.
8BB'/	.	.	16b'\LL	.	16B'/LL	.	16b'/LL	.	8B\	-te	.	.	8B\	-te	.	.	8b\	-re-	.	8b\	-re-	.	4r	.	4r	.	8b'/	.	8bb'\	.
.	.	.	16b'\	.	16B'/	.	16b'/	.	.	.	.	.	.	.	.	.	.	.	.	.	.	.	.	.	.	.	.	.	.	.
8GG'/J	.	.	16g'\	.	16G'/	.	16g'/	.	8G\	ex-	.	.	8G/	ex-	.	.	8g\	-re	.	8g\	-re	.	.	.	.	.	8g'/J	.	8gg'\J	.
.	.	.	16g'\JJ	.	16G'/JJ	.	16g'/JJ	.	.	.	.	.	.	.	.	.	.	.	.	.	.	.	.	.	.	.	.	.	.	.
!	!	!	!LO:LB:g=original	!	!	!	!	!	!	!	!	!	!	!	!	!	!	!	!	!	!	!	!	!	!	!	!	!	!	!
!	!	!	!	!	!LO:LB:g=original	!	!	!	!	!	!	!	!	!	!	!	!	!	!	!	!	!	!	!	!	!	!	!	!	!
=35	=35	=35	=35	=35	=35	=35	=35	=35	=35	=35	=35	=35	=35	=35	=35	=35	=35	=35	=35	=35	=35	=35	=35	=35	=35	=35	=35	=35	=35	=35
8E'\L	.	.	16e'\LL	.	16e'/LL	.	16ee'\LL	.	8E\	-au-	.	.	8e\	-au-	.	.	8e\L	no-	.	8ee\L	no-	.	8a\L	.	8a\L	.	8g'/L	.	8ee'\L	.
.	.	.	16e'\	.	16e'/	.	16ee'\	.	.	.	.	.	.	.	.	.	.	.	.	.	.	.	.	.	.	.	.	.	.	.
8C#X'\J	.	.	16c#X'\	.	16c#X'/	.	16cc#X'\	.	8C#X/	-di	.	.	8c#X\	-di	.	.	8c#X\J	.	.	8cc#X\J	.	.	8a\J	.	8a\J	.	8g'/J	.	8cc#X'\J	.
.	.	.	16c#'\JJ	.	16c#'/JJ	.	16cc#'\JJ	.	.	.	.	.	.	.	.	.	.	.	.	.	.	.	.	.	.	.	.	.	.	.
8D'\	.	.	4d\	.	4d/	.	4dd\	.	8D\	nos	.	.	8d\	nos	.	.	8d\	-bis	.	8dd\	-bis	.	4d/	.	4a\	.	4f#/	.	4dd\	.
8r	.	.	.	.	.	.	.	.	8r	.	.	.	8r	.	.	.	8r	.	.	8r	.	.	.	.	.	.	.	.	.	.
!	!	!	!	!	!	!	!	!	!	!	!	!	!LO:LB:g=original	!	!	!	!	!	!	!	!	!	!	!	!	!	!	!	!	!
!	!	!	!	!	!	!	!	!	!	!	!	!	!	!	!	!	!	!	!	!	!	!	!	!	!	!	!	!	!LO:LB:g=original	!
=36	=36	=36	=36	=36	=36	=36	=36	=36	=36	=36	=36	=36	=36	=36	=36	=36	=36	=36	=36	=36	=36	=36	=36	=36	=36	=36	=36	=36	=36	=36
.	.	.	.	.	.	.	16qqaa/	.	.	.	.	.	.	.	.	.	.	.	.	.	.	.	.	.	.	.	.	.	.	.
8C#X/L	7 5	.	8g'\L	.	(16ee\LL	.	16gg\LL	.	4c#X\	X-	.	.	4A\	X-	.	.	4g\	mi-	.	4ee\	mi-	.	4a\	.	4a\	.	4cc#X\	.	4gg\	p
.	.	.	.	.	16a\)	.	(32ff#\L	.	.	.	.	.	.	.	.	.	.	.	.	.	.	.	.	.	.	.	.	.	.	.
.	.	.	.	.	.	.	32gg\JJJ)	.	.	.	.	.	.	.	.	.	.	.	.	.	.	.	.	.	.	.	.	.	.	.
8AA/	.	.	8g'\	.	(16ee\	.	16aa'\LL	.	.	.	.	.	.	.	.	.	.	.	.	.	.	.	.	.	.	.	.	.	.	.
.	.	.	.	.	16a\JJ)	.	16gg'\JJ	.	.	.	.	.	.	.	.	.	.	.	.	.	.	.	.	.	.	.	.	.	.	.
.	.	.	.	.	.	.	16qqgg/	.	.	.	.	.	.	.	.	.	.	.	.	.	.	.	.	.	.	.	.	.	.	.
8D/	3	.	8f#'\	.	(16dd\LL	.	16ff#\LL	.	4d\	-te	.	.	4A\	-ste	.	.	4f#\	-se-	.	4dd\	-se-	.	4d/	.	4a\	.	4dd\	.	4ff#\	.
.	.	.	.	.	16a\)	.	(32ee\L	.	.	.	.	.	.	.	.	.	.	.	.	.	.	.	.	.	.	.	.	.	.	.
.	.	.	.	.	.	.	32ff#\JJJ)	.	.	.	.	.	.	.	.	.	.	.	.	.	.	.	.	.	.	.	.	.	.	.
8AA/J	.	.	8f#'\J	.	(16dd\	.	16gg'\LL	.	.	.	.	.	.	.	.	.	.	.	.	.	.	.	.	.	.	.	.	.	.	.
.	.	.	.	.	16a\JJ)	.	16ff#'\JJ	.	.	.	.	.	.	.	.	.	.	.	.	.	.	.	.	.	.	.	.	.	.	.
!	!	!	!	!	!	!	!LO:LB:g=original	!	!	!	!	!	!	!	!	!	!	!	!	!	!	!	!	!	!	!	!	!	!	!
=37	=37	=37	=37	=37	=37	=37	=37	=37	=37	=37	=37	=37	=37	=37	=37	=37	=37	=37	=37	=37	=37	=37	=37	=37	=37	=37	=37	=37	=37	=37
!LO:TX:t=P:problem:mixed beam	!	!	!	!	!	!	!	!	!	!	!	!	!	!	!	!	!	!	!	!	!	!	!	!	!	!	!	!	!	!
.	.	.	.	.	.	.	16qqff#/	.	.	.	.	.	.	.	.	.	.	.	.	.	.	.	.	.	.	.	.	.	.	.
8G\L	6	.	8c#X'\L	.	(16g/LL	.	16ee\LL	.	4A\	au-	.	.	4A\	au-	.	.	4e\	-re-	.	4cc#X\	-re-	.	8a\L	.	8a\L	.	4g/	.	4ee\	.
.	.	.	.	.	16a/)	.	32dd\L	.	.	.	.	.	.	.	.	.	.	.	.	.	.	.	.	.	.	.	.	.	.	.
.	.	.	.	.	.	.	32ee\JJJ	.	.	.	.	.	.	.	.	.	.	.	.	.	.	.	.	.	.	.	.	.	.	.
8AA/	.	.	8c#'\	.	(16g/	.	16ff#'\LL	.	.	.	.	.	.	.	.	.	.	.	.	.	.	.	8a\J	.	8a\J	.	.	.	.	.
.	.	.	.	.	16a/JJ)	.	16ee'\JJ	.	.	.	.	.	.	.	.	.	.	.	.	.	.	.	.	.	.	.	.	.	.	.
!	!	!	!	!	!	!	!	!	!	!	!	!	!	!	!	!	!	!	!	!	!	!	!	!	!	!	!	!	!LO:TX:t=P:problem:f = for	!
8F#\	3	.	8d'\	.	(16f#/LL	.	16ee'\LL	.	8D/	-di	.	.	8A\	-di	.	.	8f#\	-re	.	8dd\	-re	.	8d/	.	8a\	.	4f#/	.	4dd\	f
.	.	.	.	.	16a/)	.	(16dd\	.	.	.	.	.	.	.	.	.	.	.	.	.	.	.	.	.	.	.	.	.	.	.
!	!	!	!	!	!	!	!	!	!LO:TX:t=P:problem:p = pia	!	!	!LO:DY:a	!	!	!	!	!	!	!	!	!	!	!	!	!	!	!	!	!	!
8AA/J	.	.	8d'\J	.	(16f#/	.	16cc#X\)	.	8r	.	.	p	8r	.	.	.	8r	.	.	8r	.	.	8r	.	8r	.	.	.	.	.
.	.	.	.	.	16a/JJ)	.	16dd\JJ	.	.	.	.	.	.	.	.	.	.	.	.	.	.	.	.	.	.	.	.	.	.	.
=38	=38	=38	=38	=38	=38	=38	=38	=38	=38	=38	=38	=38	=38	=38	=38	=38	=38	=38	=38	=38	=38	=38	=38	=38	=38	=38	=38	=38	=38	=38
!LO:TX:t=P:problem:p = pia	!	!	!LO:TX:t=P:problem:p = pia	!	!	!	!LO:TX:t=P:problem:p = piano	!	!	!	!	!	!	!	!	!	!	!	!	!	!	!	!	!	!	!	!LO:TX:t=P:problem:p = pia	!	!	!
.	.	.	.	.	.	.	16qqaa/	p	.	.	.	.	.	.	.	.	.	.	.	.	.	.	.	.	.	.	.	.	.	.
8C#X/L	.	p	8g'\L	p	(16ee\LL	.	(16gg\LL	.	4c#X\	X-	.	.	4A\	X-	.	.	4g\	/mi-	.	4ee\	no-	.	4a\	.	4a\	.	4cc#X\	p	4gg\	.
.	.	.	.	.	16a\)	.	32ff#\L	.	.	.	.	.	.	.	.	.	.	.	.	.	.	.	.	.	.	.	.	.	.	.
.	.	.	.	.	.	.	32gg\JJJ)	.	.	.	.	.	.	.	.	.	.	.	.	.	.	.	.	.	.	.	.	.	.	.
8AA/	.	.	8g'\	.	(16ee\	.	16aa'\LL	.	.	.	.	.	.	.	.	.	.	.	.	.	.	.	.	.	.	.	.	.	.	.
.	.	.	.	.	16a\JJ)	.	16gg'\JJ	.	.	.	.	.	.	.	.	.	.	.	.	.	.	.	.	.	.	.	.	.	.	.
.	.	.	.	.	.	.	16qqgg/	.	.	.	.	.	.	.	.	.	.	.	.	.	.	.	.	.	.	.	.	.	.	.
8D/	.	.	8f#'\	.	(16dd\LL	.	16ff#\LL	.	4d\	-te	.	.	4A\	-te	.	.	4f#\	-se-	.	4dd\	-bis	.	4a\	.	8a\	.	4dd\	.	4ff#\	.
.	.	.	.	.	16a\)	.	(32ee\L	.	.	.	.	.	.	.	.	.	.	.	.	.	.	.	.	.	.	.	.	.	.	.
.	.	.	.	.	.	.	32ff#\JJJ)	.	.	.	.	.	.	.	.	.	.	.	.	.	.	.	.	.	.	.	.	.	.	.
8AA/J	.	.	8f#'\J	.	(16dd\	.	16gg'\LL	.	.	.	.	.	.	.	.	.	.	.	.	.	.	.	.	.	8r	.	.	.	.	.
.	.	.	.	.	16a\JJ)	.	16ff#'\JJ	.	.	.	.	.	.	.	.	.	.	.	.	.	.	.	.	.	.	.	.	.	.	.
!LO:LB:g=original	!	!	!	!	!	!	!	!	!	!	!	!	!	!	!	!	!	!	!	!	!	!	!	!	!	!	!	!	!	!
=39	=39	=39	=39	=39	=39	=39	=39	=39	=39	=39	=39	=39	=39	=39	=39	=39	=39	=39	=39	=39	=39	=39	=39	=39	=39	=39	=39	=39	=39	=39
!LO:TX:t=P:problem:mixed beam	!	!	!	!	!	!	!	!	!	!	!	!	!	!	!	!	!	!	!	!	!	!	!	!	!	!	!	!	!	!
.	.	.	.	.	.	.	16qqff#/	.	.	.	.	.	.	.	.	.	.	.	.	.	.	.	.	.	.	.	.	.	.	.
8G\L	.	.	8c#X'\L	.	(16g/LL	.	16ee\LL	.	4A\	au-	.	.	4A\	au-	.	.	4e\	-re-	.	4cc#X\	no-	.	8a\L	.	4a\	.	4g/	.	4ee\	.
.	.	.	.	.	16a/)	.	(32dd\L	.	.	.	.	.	.	.	.	.	.	.	.	.	.	.	.	.	.	.	.	.	.	.
.	.	.	.	.	.	.	32ee\JJJ)	.	.	.	.	.	.	.	.	.	.	.	.	.	.	.	.	.	.	.	.	.	.	.
8AA/	.	.	8c#'\	.	(16g/	.	16ff#'\LL	.	.	.	.	.	.	.	.	.	.	.	.	.	.	.	8a\J	.	.	.	.	.	.	.
.	.	.	.	.	16a/JJ)	.	16ee'\JJ	.	.	.	.	.	.	.	.	.	.	.	.	.	.	.	.	.	.	.	.	.	.	.
8F#\	.	.	8d'\	.	(16f#/LL	.	(16ee\LL	.	8D\	-ti	.	.	8A\	-di	.	.	8f#\	-re/	.	8dd\	-bis	.	8d/	.	8a\	.	4f#/	.	4dd\	.
.	.	.	.	.	16a/)	.	16dd\	.	.	.	.	.	.	.	.	.	.	.	.	.	.	.	.	.	.	.	.	.	.	.
8AA/J	.	.	8d'\J	.	(16f#/	.	16cc#X\	.	8r	.	.	.	8r	.	.	.	8r	.	.	8r	.	.	8r	.	8r	.	.	.	.	.
.	.	.	.	.	16a/JJ)	.	16dd\JJ)	.	.	.	.	.	.	.	.	.	.	.	.	.	.	.	.	.	.	.	.	.	.	.
!	!	!	!	!	!	!	!	!	!	!	!	!	!	!	!	!	!LO:LB:g=original	!	!	!	!	!	!	!	!	!	!	!	!	!
!	!	!	!	!	!	!	!	!	!	!	!	!	!	!	!	!	!	!	!	!	!	!	!LO:LB:g=original	!	!	!	!	!	!	!
!	!	!	!	!	!	!	!	!	!	!	!	!	!	!	!	!	!	!	!	!	!	!	!	!	!LO:LB:g=original	!	!	!	!	!
=40	=40	=40	=40	=40	=40	=40	=40	=40	=40	=40	=40	=40	=40	=40	=40	=40	=40	=40	=40	=40	=40	=40	=40	=40	=40	=40	=40	=40	=40	=40
!LO:TX:t=P:problem:f = for	!	!	!LO:TX:t=P:problem:f = for	!	!	!	!LO:TX:t=P:problem:f = forto	!	!	!	!	!	!	!	!	!	!	!	!	!	!	!	!	!	!	!	!	!	!	!
.	.	.	.	.	.	.	16qqaa/	f	.	.	.	.	.	.	.	.	.	.	.	.	.	.	.	.	.	.	.	.	.	.
8C#X/L	7	f	8g'\L	f	(16ee\LL	.	16gg\LL	.	4c#X\	Chris-	.	.	4A\	Chris-	.	.	4g\	mi-	.	4ee\	mi-	.	4a\	.	8a\L	.	4cc#X\	.	4gg\	.
.	.	.	.	.	16a\)	.	(32ff#\L	.	.	.	.	.	.	.	.	.	.	.	.	.	.	.	.	.	.	.	.	.	.	.
.	.	.	.	.	.	.	32gg\JJJ)	.	.	.	.	.	.	.	.	.	.	.	.	.	.	.	.	.	.	.	.	.	.	.
8AA/	.	.	8g'\	.	(16ee\	.	16aa'\LL	.	.	.	.	.	.	.	.	.	.	.	.	.	.	.	.	.	8a\	.	.	.	.	.
.	.	.	.	.	16a\JJ)	.	16ee'\JJ	.	.	.	.	.	.	.	.	.	.	.	.	.	.	.	.	.	.	.	.	.	.	.
8D/	3	.	8f#'\	.	(16dd\LL	.	(16ee#X\LL	.	8d\	-te	.	.	8A\	-te	.	.	8f#\	-se-	.	8dd\	-se-	.	8d/	.	8a\J	.	4dd\	.	4ff#\	.
.	.	.	.	.	16a\)	.	16ff#\)	.	.	.	.	.	.	.	.	.	.	.	.	.	.	.	.	.	.	.	.	.	.	.
8AA/J	.	.	8f#'\J	.	(16dd\	.	16ff#'\	.	8r	.	.	.	8r	.	.	.	8r	.	.	8r	.	.	8r	.	8r	.	.	.	.	.
.	.	.	.	.	16a\JJ)	.	16ff#'\JJ	.	.	.	.	.	.	.	.	.	.	.	.	.	.	.	.	.	.	.	.	.	.	.
!	!	!	!	!	!	!	!	!	!	!	!	!	!	!	!	!	!	!	!	!	!	!	!	!	!	!	!LO:LB:g=original	!	!	!
=41	=41	=41	=41	=41	=41	=41	=41	=41	=41	=41	=41	=41	=41	=41	=41	=41	=41	=41	=41	=41	=41	=41	=41	=41	=41	=41	=41	=41	=41	=41
!	!	!	!	!	!	!	!	!	!	!	!	!	!	!	!	!	!	!	!	!	!	!	!	!	!	!	!LO:SIC:v:s=cc#	!	!	!
.	.	.	.	.	.	.	16qqaa/	.	.	.	.	.	.	.	.	.	.	.	.	.	.	.	.	.	.	.	.	.	.	.
8C#X/L	7	.	8g'\L	.	(16ee\LL	.	16gg\LL	.	4c#X\	/Chris-	.	.	4A\	/Chris-	.	.	4g\	-re-	.	4ee\	-re-	.	4a\	.	8b\L	.	4cc\	.	4gg\	.
.	.	.	.	.	16a\)	.	(32ff#\L	.	.	.	.	.	.	.	.	.	.	.	.	.	.	.	.	.	.	.	.	.	.	.
.	.	.	.	.	.	.	32gg\JJJ)	.	.	.	.	.	.	.	.	.	.	.	.	.	.	.	.	.	.	.	.	.	.	.
8AA/J	.	.	8g'\	.	(16ee\	.	16aa'\LL	.	.	.	.	.	.	.	.	.	.	.	.	.	.	.	.	.	8b\	.	.	.	.	.
.	.	.	.	.	16a\JJ)	.	16ee'\JJ	.	.	.	.	.	.	.	.	.	.	.	.	.	.	.	.	.	.	.	.	.	.	.
8D/	3	.	8f#'\	.	(16dd\LL	.	(16ee#X\LL	.	8d\	-te/	.	.	8A\	-te/	.	.	8f#\	-re	.	8dd\	-re	.	8d/	.	8b\J	.	4dd\	.	4ff#\	.
.	.	.	.	.	16a\)	.	16ff#\)	.	.	.	.	.	.	.	.	.	.	.	.	.	.	.	.	.	.	.	.	.	.	.
8r	.	.	8f#'\J	.	(16dd\	.	16ff#'\	.	8r	.	.	.	8r	.	.	.	8r	.	.	8r	.	.	8r	.	8r	.	.	.	.	.
.	.	.	.	.	16a\JJ)	.	16ff#'\JJ	.	.	.	.	.	.	.	.	.	.	.	.	.	.	.	.	.	.	.	.	.	.	.
!	!	!	!	!	!	!	!	!	!	!	!	!	!	!	!	!	!	!	!	!LO:LB:g=original	!	!	!	!	!	!	!	!	!	!
=42	=42	=42	=42	=42	=42	=42	=42	=42	=42	=42	=42	=42	=42	=42	=42	=42	=42	=42	=42	=42	=42	=42	=42	=42	=42	=42	=42	=42	=42	=42
8F#\L	6 3	.	8d'\L	.	16f#'/LL	.	16dd'\LL	.	4F#\	ex-	.	.	4F#/	ex-	.	.	4a\	mi-	.	4dd\	mi-	.	8d/L	.	8a\	.	4dd\	.	(16ff#\LL	.
.	.	.	.	.	16a'/	.	(32ff#\L	.	.	.	.	.	.	.	.	.	.	.	.	.	.	.	.	.	.	.	.	.	16aa\)	.
.	.	.	.	.	.	.	32een\JJJ)	.	.	.	.	.	.	.	.	.	.	.	.	.	.	.	.	.	.	.	.	.	.	.
8F#\	.	.	8d'\	.	16f#'/	.	16dd\LL	.	.	.	.	.	.	.	.	.	.	.	.	.	.	.	8d/	.	8r	.	.	.	(16ff#\	.
.	.	.	.	.	16a'/JJ	.	(32ff#\L	.	.	.	.	.	.	.	.	.	.	.	.	.	.	.	.	.	.	.	.	.	16aa\JJ)	.
.	.	.	.	.	.	.	32ee\JJJ)	.	.	.	.	.	.	.	.	.	.	.	.	.	.	.	.	.	.	.	.	.	.	.
8F#\J	.	.	8d'\J	.	8f#'/	.	16dd'\LL	.	4r	.	.	.	4r	.	.	.	8a\	-se-	.	8dd\	-se-	.	8d/J	.	8a\L	.	16dd'\LL	.	8ff#\	.
.	.	.	.	.	.	.	16dd'\	.	.	.	.	.	.	.	.	.	.	.	.	.	.	.	.	.	.	.	16dd'\	.	.	.
8r	.	.	8r	.	8r	.	(16ee\	.	.	.	.	.	.	.	.	.	8r	.	.	8r	.	.	8r	.	8a\J	.	16ee'\	.	8r	.
.	.	.	.	.	.	.	16ff#\JJ)	.	.	.	.	.	.	.	.	.	.	.	.	.	.	.	.	.	.	.	16ff#'\JJ	.	.	.
!	!	!	!	!	!LO:LB:g=original	!	!	!	!	!	!	!	!	!	!	!	!	!	!	!	!	!	!	!	!	!	!	!	!	!
=43	=43	=43	=43	=43	=43	=43	=43	=43	=43	=43	=43	=43	=43	=43	=43	=43	=43	=43	=43	=43	=43	=43	=43	=43	=43	=43	=43	=43	=43	=43
8G\L	6 3	.	8e'\L	.	16g'/LL	.	16ee'\LL	.	8G\	-au-	.	.	8G/	-au-	.	.	4b\	-re-	.	4ee\	-re-	.	8g\L	.	4a\	.	4ee\	.	(16gg\LL	.
.	.	.	.	.	16b'/	.	(32gg\L	.	.	.	.	.	.	.	.	.	.	.	.	.	.	.	.	.	.	.	.	.	16bb\)	.
.	.	.	.	.	.	.	32ff#\JJJ)	.	.	.	.	.	.	.	.	.	.	.	.	.	.	.	.	.	.	.	.	.	.	.
8G\	.	.	8e'\	.	16g'/	.	16ee'\LL	.	8G\	-di	.	.	8G/	-di	.	.	.	.	.	.	.	.	8g\	.	.	.	.	.	(16gg\	.
.	.	.	.	.	16b'/JJ	.	(32gg\L	.	.	.	.	.	.	.	.	.	.	.	.	.	.	.	.	.	.	.	.	.	16bb\JJ)	.
.	.	.	.	.	.	.	32ff#\JJJ)	.	.	.	.	.	.	.	.	.	.	.	.	.	.	.	.	.	.	.	.	.	.	.
!	!	!	!	!	!	!	!	!	!	!	!	!	!	!	!	!	!	!	!	!	!	!	!	!	!LO:TX:t=P:problem:p = pia	!	!	!	!	!
8G\J	.	.	8e'\J	.	8g/	.	16ee'\LL	.	8G\	nos	.	.	8G/	nos	.	.	8b\	-re	.	8ee\	-re	.	8g\J	.	8d/L	p	8ee\	.	8gg\	.
.	.	.	.	.	.	.	16ee'\	.	.	.	.	.	.	.	.	.	.	.	.	.	.	.	.	.	.	.	.	.	.	.
8r	.	.	8r	.	16r	.	(16gg\	.	8r	.	.	.	8r	.	.	.	8r	.	.	8r	.	.	8r	.	8d/J	.	8r	.	8r	.
.	.	.	.	.	16g/	.	16bb\JJ)	.	.	.	.	.	.	.	.	.	.	.	.	.	.	.	.	.	.	.	.	.	.	.
=44	=44	=44	=44	=44	=44	=44	=44	=44	=44	=44	=44	=44	=44	=44	=44	=44	=44	=44	=44	=44	=44	=44	=44	=44	=44	=44	=44	=44	=44	=44
8A\	.	.	8a\	.	(16g/LL	.	(16bb\LL	.	4r	.	.	.	4r	.	.	.	4r	.	.	4r	.	.	8a\	.	[2d/	.	4r	.	4r	.
.	.	.	.	.	16f#/)	.	16aa\)	.	.	.	.	.	.	.	.	.	.	.	.	.	.	.	.	.	.	.	.	.	.	.
8r	.	.	8r	.	16b'/	.	16gg'\	.	.	.	.	.	.	.	.	.	.	.	.	.	.	.	8r	.	.	.	.	.	.	.
.	.	.	.	.	16a'/JJ	.	16ff#'\JJ	.	.	.	.	.	.	.	.	.	.	.	.	.	.	.	.	.	.	.	.	.	.	.
!LO:TX:t=P:problem:mixed beam	!	!	!	!	!	!	!	!	!	!	!	!	!	!	!	!	!	!	!	!	!	!	!	!	!	!	!	!	!	!
8AL\	4	.	8a\L	.	(16a/LL	.	(16ff#\LL	.	8A\	au-	.	.	8A\	au-	.	.	16a\LL	no-	.	(16ff#\LL	no-	.	8a\L	.	.	.	(16ff#\LL	.	(16aa\LL	.
.	.	.	.	.	16g/)	.	16ee\)	.	.	.	.	.	.	.	.	.	16g\	.	.	16ee\	.	.	.	.	.	.	16ee\)	.	16gg\)	.
8AA/J	#	.	8a\J	.	16f#'/	.	16dd'\	.	8AA/	-di	.	.	8A\	-di	.	.	16f#\	.	.	16dd\	.	.	8a\J	.	.	.	16dd'\	.	16ff#'\	.
.	.	.	.	.	16e'/JJ	.	16cc#X'\JJ	.	.	.	.	.	.	.	.	.	16e\JJ	.	.	16cc#X\JJ)	.	.	.	.	.	.	16cc#X'\JJ	.	16ee'\JJ	.
!	!	!	!LO:LB:g=original	!	!	!	!	!	!	!	!	!	!	!	!	!	!	!	!	!	!	!	!	!	!	!	!	!	!	!
=45	=45	=45	=45	=45	=45	=45	=45	=45	=45	=45	=45	=45	=45	=45	=45	=45	=45	=45	=45	=45	=45	=45	=45	=45	=45	=45	=45	=45	=45	=45
!	!	!	!LO:TX:t=P:problem:p = piano	!	!	!	!	!	!	!	!	!	!	!	!	!	!	!	!	!	!	!	!	!	!	!	!	!	!	!
4D\	.	.	4d\ 4a	p	4f#/	.	4dd'\	.	4D\	nos	.	.	4A\	nos	.	.	4f#\	-bis	.	4dd\	-bis	.	4d/	.	4d/]	.	4dd\	.	4ff#\	.
!	!	!	!	!	!	!	!	!	!LO:TX:a:t=Solo	!	!	!	!	!	!	!	!	!	!	!	!	!	!LO:TX:t=P:problem:p = pia	!LO:DY:a	!	!	!	!	!	!
4r	.	.	8d\L	.	8d'/L	.	4r	.	4r	.	.	.	4r	.	.	.	4r	.	.	4r	.	.	8D/L	p	4g\	.	4r	.	4r	.
.	.	.	8d\J	.	8d'/J	.	.	.	.	.	.	.	.	.	.	.	.	.	.	.	.	.	8D/J	.	.	.	.	.	.	.
!	!	!	!	!	!	!	!	!	!	!	!	!	!LO:LB:g=original	!	!	!	!	!	!	!	!	!	!	!	!	!	!	!	!	!
=46	=46	=46	=46	=46	=46	=46	=46	=46	=46	=46	=46	=46	=46	=46	=46	=46	=46	=46	=46	=46	=46	=46	=46	=46	=46	=46	=46	=46	=46	=46
!LO:TX:b:t=Solo	!	!	!	!	!LO:TX:t=P:problem:p = piano	!LO:DY:a	!LO:TX:t=P:problem:p = piano	!	!	!	!	!	!LO:TX:a:t=dolce	!	!	!	!LO:TX:a:t=2	!	!	!LO:TX:a:t=2	!	!	!	!	!LO:TX:t=P:problem:brak t. 46-47	!	!	!	!	!
8r	.	.	16d\KL	.	(16b\LL	p	(32ee\LLL	p	(16B\LL	Chris-	.	.	(16d\LL	Chris-	.	.	2r	.	.	2r	.	.	2D/	.	2ryy	.	2r	.	2r	.
.	.	.	.	.	.	.	32dd\	.	.	.	.	.	.	.	.	.	.	.	.	.	.	.	.	.	.	.	.	.	.	.
.	.	.	8d\	.	32a#X\L	.	32cc#X\	.	32A#X\L	.	.	.	32c#X\L	.	.	.	.	.	.	.	.	.	.	.	.	.	.	.	.	.
!	!	!	!	!	!	!	!	!	!LO:TX:a:t=dolce	!	!	!	!	!	!	!	!	!	!	!	!	!	!	!	!	!	!	!	!	!
.	.	.	.	.	32b\JJJ)	.	32dd\JJJ)	.	32B\JJJ)	.	.	.	32d\JJJ)	.	.	.	.	.	.	.	.	.	.	.	.	.	.	.	.	.
8GG/L	.	.	.	.	(16ccn\LL	.	(16ee\LL	.	16c\LL	-te	.	.	16e\LL	-te	.	.	.	.	.	.	.	.	.	.	.	.	.	.	.	.
.	.	.	8d\	.	16b\JJ)	.	16dd\JJ)	.	16B\JJ	.	.	.	16d\JJ	.	.	.	.	.	.	.	.	.	.	.	.	.	.	.	.	.
!LO:TX:t=P:problem:p = p:	!	!	!	!	!	!	!	!	!	!	!	!	!	!	!	!	!	!	!	!	!	!	!	!	!	!	!	!	!	!
8D/	8 6	p	.	.	16b'/LL	.	16dd'\LL	.	16B\LL	au-	.	.	16d\LL	au-	.	.	.	.	.	.	.	.	.	.	.	.	.	.	.	.
.	.	.	8d\	.	16an'/	.	16ccn'\	.	16An\JJ	.	.	.	16cn\JJ	.	.	.	.	.	.	.	.	.	.	.	.	.	.	.	.	.
8DD/J	-7 5	.	.	.	16g#X'/	.	16b'\	.	16G#X\LL	-di	.	.	16B\LL	-di	.	.	.	.	.	.	.	.	.	.	.	.	.	.	.	.
.	.	.	16d\Jk	.	16a'/JJ	.	16cc'\JJ	.	16A\JJ	.	.	.	16c\JJ	.	.	.	.	.	.	.	.	.	.	.	.	.	.	.	.	.
=47	=47	=47	=47	=47	=47	=47	=47	=47	=47	=47	=47	=47	=47	=47	=47	=47	=47	=47	=47	=47	=47	=47	=47	=47	=47	=47	=47	=47	=47	=47
!	!	!	!	!	!	!	!	!	!	!	!	!	!	!	!	!	!	!	!	!	!	!	!LO:TX:t=P:problem:f = for	!LO:DY:a	!	!	!	!	!	!
8r	.	.	16d\KL	.	16a/LL	.	(32dd\LLL	.	16A\LL	Chris-	.	.	(16c\LL	Chris-	.	.	2r	.	.	2r	.	.	4D/	f	2ryy	.	2r	.	2r	.
.	.	.	.	.	.	.	32cc\	.	.	.	.	.	.	.	.	.	.	.	.	.	.	.	.	.	.	.	.	.	.	.
.	.	.	8d\	.	(32gn/L	.	32b\	.	32Gn\L	.	.	.	32B\L	.	.	.	.	.	.	.	.	.	.	.	.	.	.	.	.	.
.	.	.	.	.	32a/JJJ)	.	32cc\JJJ)	.	32A\JJJ	.	.	.	32c\JJJ)	.	.	.	.	.	.	.	.	.	.	.	.	.	.	.	.	.
!LO:TX:t=P:problem:mixed beam	!	!	!	!	!	!	!	!	!	!	!	!	!	!	!	!	!	!	!	!	!	!	!	!	!	!	!	!	!	!
8D\L	.	.	.	.	(16b/LL	.	(16dd\LL	.	16B\LL	-te	.	.	(16d\LL	-te	.	.	.	.	.	.	.	.	.	.	.	.	.	.	.	.
.	.	.	8d\	.	16a/JJ)	.	16cc\JJ)	.	16A\JJ	.	.	.	16c\JJ)	.	.	.	.	.	.	.	.	.	.	.	.	.	.	.	.	.
8G\	.	.	.	.	16a'/LL	.	16cc'\LL	.	16A\LL	au-	.	.	16c\LL	au-	.	.	.	.	.	.	.	.	4G/	.	.	.	.	.	.	.
.	.	.	8d\	.	16g'/	.	16b'\	.	16G\JJ	.	.	.	16B\JJ	.	.	.	.	.	.	.	.	.	.	.	.	.	.	.	.	.
8GG/J	.	.	.	.	16f#'/	.	16a'\	.	16F#\LL	-di	.	.	16A\LL	-di	.	.	.	.	.	.	.	.	.	.	.	.	.	.	.	.
.	.	.	16d\Jk	.	16g'/JJ	.	16b'\JJ	.	16G\JJ	.	.	.	16B\JJ	.	.	.	.	.	.	.	.	.	.	.	.	.	.	.	.	.
!LO:LB:g=original	!	!	!	!	!	!	!	!	!	!	!	!	!	!	!	!	!	!	!	!	!	!	!	!	!	!	!	!	!	!
!	!	!	!	!	!	!	!LO:LB:g=original	!	!	!	!	!	!	!	!	!	!	!	!	!	!	!	!	!	!	!	!	!	!	!
=48	=48	=48	=48	=48	=48	=48	=48	=48	=48	=48	=48	=48	=48	=48	=48	=48	=48	=48	=48	=48	=48	=48	=48	=48	=48	=48	=48	=48	=48	=48
!	!	!	!	!	!	!LO:DY:a	!LO:TX:t=P:problem:f = forto	!	!LO:TX:t=P:problem:f = forto	!	!	!LO:DY:a	!LO:TX:t=P:problem:f = forto	!	!	!LO:DY:a	!	!	!	!	!	!	!	!	!LO:TX:t=P:problem:f = for	!LO:DY:a	!	!	!	!
8GG'/L	8	ff	32G/LLL	ff	32g/LLL	f	32g/LLL	f	8G\L	X-	.	f	8G/L	X-	.	f	8g\	mi-	.	8g/	mi-	.	8G'/L	.	8g\L	f	8g'/L	.	8gg'\L	.
.	.	.	32G/	.	32g/	.	32g/	.	.	.	.	.	.	.	.	.	.	.	.	.	.	.	.	.	.	.	.	.	.	.
.	.	.	32G/	.	32g/	.	32g/	.	.	.	.	.	.	.	.	.	.	.	.	.	.	.	.	.	.	.	.	.	.	.
.	.	.	32G/JJJ	.	32g/JJJ	.	32g/JJJ	.	.	.	.	.	.	.	.	.	.	.	.	.	.	.	.	.	.	.	.	.	.	.
!	!	!	!	!	!LO:TX:t=P:problem:tremolo 32, trzy kreski przy ćwierćnucie	!	!	!	!	!	!	!	!	!	!	!	!	!	!	!	!	!	!	!	!	!	!	!	!	!
!	!	!	!	!	!LO:N:vis=4	!	!	!	!	!	!	!	!	!	!	!	!	!	!	!	!	!	!	!	!	!	!	!	!	!
*	*	*	*	*	*tremolo	*	*	*	*	*	*	*	*	*	*	*	*	*	*	*	*	*	*	*	*	*	*	*	*	*
8DD'/	8	.	32D/LLL	.	32d/	.	32d/LLL	.	8D\J	.	.	.	8D/J	.	.	.	8d\	-se-	.	8d/	-se-	.	8D'/	.	8d\	.	8d'/	.	8dd'\	.
.	.	.	32D/	.	32d/	.	32d/	.	.	.	.	.	.	.	.	.	.	.	.	.	.	.	.	.	.	.	.	.	.	.
.	.	.	32D/	.	32d/	.	32d/	.	.	.	.	.	.	.	.	.	.	.	.	.	.	.	.	.	.	.	.	.	.	.
.	.	.	32D/JJJ	.	32d/	.	32d/JJJ	.	.	.	.	.	.	.	.	.	.	.	.	.	.	.	.	.	.	.	.	.	.	.
*	*	*	*	*	*	*	*tremolo	*	*	*	*	*	*	*	*	*	*	*	*	*	*	*	*	*	*	*	*	*	*	*
!	!	!	!LO:TX:t=P:problem:tremolo 32, trzy kreski przy ćwierćnucie	!	!LO:TX:t=P:problem:tremolo 32, trzy kreski przy ćwierćnucie	!	!LO:TX:t=P:problem:tremolo 32, trzy kreski przy ćwierćnucie	!	!	!	!	!	!	!	!	!	!	!	!	!	!	!	!	!	!	!	!	!	!	!
!	!	!	!LO:N:vis=4	!	!LO:N:vis=4	!	!LO:N:vis=4	!	!	!	!	!	!	!	!	!	!	!	!	!	!	!	!	!	!	!	!	!	!LO:TX:a:t=h	!
*	*	*	*tremolo	*	*	*	*tremolo	*	*	*	*	*	*	*	*	*	*	*	*	*	*	*	*	*	*	*	*	*	*	*
8BB'/	8	.	32B/	.	32b\	.	32b\	.	8B\	-te	.	.	8B\	-te	.	.	8b\	-re-	.	8b\	-re-	.	8B'/	.	8b\	.	8b'/	.	8bb'\	.
.	.	.	32B/	.	32b\	.	32b\	.	.	.	.	.	.	.	.	.	.	.	.	.	.	.	.	.	.	.	.	.	.	.
.	.	.	32B/	.	32b\	.	32b\	.	.	.	.	.	.	.	.	.	.	.	.	.	.	.	.	.	.	.	.	.	.	.
.	.	.	32B/	.	32b\	.	32b\	.	.	.	.	.	.	.	.	.	.	.	.	.	.	.	.	.	.	.	.	.	.	.
!	!	!	!LO:TX:t=P:problem:tremolo 32, trzy kreski przy ćwierćnucie	!	!LO:TX:t=P:problem:tremolo 32, trzy kreski przy ćwierćnucie	!	!LO:TX:t=P:problem:tremolo 32, trzy kreski przy ćwierćnucie	!	!	!	!	!	!	!	!	!	!	!	!	!	!	!	!	!	!	!	!	!	!	!
!	!	!	!LO:N:vis=4	!	!LO:N:vis=4	!	!LO:N:vis=4	!	!	!	!	!	!	!	!	!	!	!	!	!	!	!	!	!	!	!	!	!	!	!
8GG'/J	8	.	32G/	.	32g/	.	32g/	.	8G\	ex-	.	.	8G/	ex-	.	.	8g\	-re	.	8g\	-re	.	8G'/J	.	8g\J	.	8g'/J	.	8gg'\J	.
.	.	.	32G/	.	32g/	.	32g/	.	.	.	.	.	.	.	.	.	.	.	.	.	.	.	.	.	.	.	.	.	.	.
.	.	.	32G/	.	32g/	.	32g/	.	.	.	.	.	.	.	.	.	.	.	.	.	.	.	.	.	.	.	.	.	.	.
.	.	.	32G/	.	32g/	.	32g/	.	.	.	.	.	.	.	.	.	.	.	.	.	.	.	.	.	.	.	.	.	.	.
*	*	*	*Xtremolo	*	*Xtremolo	*	*Xtremolo	*	*	*	*	*	*	*	*	*	*	*	*	*	*	*	*	*	*	*	*	*	*	*
=49	=49	=49	=49	=49	=49	=49	=49	=49	=49	=49	=49	=49	=49	=49	=49	=49	=49	=49	=49	=49	=49	=49	=49	=49	=49	=49	=49	=49	=49	=49
8D'/L	8	.	16d'/LL	.	16dd'\LL	.	16dd\LL	.	8d\	-au-	.	.	8d\	-au-	.	.	8dd\L	no-	.	8dd\L	no-	.	8d/L	.	8d'/L	.	8dd\L	.	16ddd\LL	.
.	.	.	16d'/	.	16dd'\	.	16dd\	.	.	.	.	.	.	.	.	.	.	.	.	.	.	.	.	.	.	.	.	.	16ddd\	.
16BB'/L	8	.	16B'/	.	16b'\	.	16b\	.	16B\LL	-di	.	.	16B\LL	-di	.	.	16b\L	.	.	16b\L	.	.	16B/L	.	16B'/L	.	16b\L	.	16bb\	.
16GG'/JJ	8	.	16G'/JJ	.	16g'\JJ	.	16g\JJ	.	16G\JJ	.	.	.	16G\JJ	.	.	.	16g\JJ	.	.	16g\JJ	.	.	16G/JJ	.	16G'/JJ	.	16g\JJ	.	16gg\JJ	.
!	!	!	!	!	!	!	!	!	!	!	!	!	!	!	!	!	!	!	!	!	!	!	!LO:N:vis=8	!	!LO:N:vis=8	!	!	!	!	!
!	!	!	!	!	!	!	!	!	!	!	!	!	!	!	!	!	!	!	!	!	!	!	!	!	!	!	!	!	!LO:LB:g=original	!
8DD'/	8	.	8D/	.	8d/	.	8d/	.	8D\	nos	.	.	8D/	nos	.	.	8d\	-bis	.	8d/	-bis	.	8D/	.	8D'/	.	8d/	.	8dd\	.
!	!	!	!LO:TX:t=P:problem:p = pia	!	!	!	!LO:TX:t=P:problem:p = piano	!	!	!	!	!	!	!	!	!	!	!	!	!	!	!	!	!	!	!	!	!	!	!
8r	.	.	8r	p	8r	.	8r	p	8r	.	.	.	8r	.	.	.	8r	.	.	8r	.	.	8r	.	8r	.	8r	.	8r	.
!	!	!	!	!	!LO:LB:g=original	!	!	!	!	!	!	!	!	!	!	!	!	!	!	!	!	!	!	!	!	!	!	!	!	!
=50	=50	=50	=50	=50	=50	=50	=50	=50	=50	=50	=50	=50	=50	=50	=50	=50	=50	=50	=50	=50	=50	=50	=50	=50	=50	=50	=50	=50	=50	=50
!LO:TX:b:t=pedal	!	!	!	!	!LO:TX:t=P:problem:p = piano	!	!	!	!LO:TX:a:t=2	!	!	!	!LO:TX:a:t=2	!	!	!	!LO:TX:a:t=2	!	!	!LO:TX:a:t=2	!	!	!	!	!LO:TX:a:t=Solo	!	!	!	!	!
8GG'/	.	.	(4G/	.	8B/L	.	8g'/L	.	2r	.	.	.	2r	.	.	.	2r	.	.	2r	.	.	8B'/L	.	8g'\L	.	2r	.	2r	.
8r	.	.	.	.	8d/J	.	8a'/J	.	.	.	.	.	.	.	.	.	.	.	.	.	.	.	8d'/J	.	8a'\J	.	.	.	.	.
!LO:TX:t=P:problem:p = pia	!	!	!	!	!	!	!	!	!	!	!	!	!	!	!	!	!	!	!	!	!	!	!	!	!	!	!	!	!	!
8G'\	.	p	4g\)	.	(16g\LL	.	(16b\LL	.	.	.	.	.	.	.	.	.	.	.	.	.	.	.	8g'\	.	8b'\	.	.	.	.	.
.	.	.	.	.	16b\)	.	16dd\)	.	.	.	.	.	.	.	.	.	.	.	.	.	.	.	.	.	.	.	.	.	.	.
8r	.	.	.	.	16b'\	.	16dd'\	.	.	.	.	.	.	.	.	.	.	.	.	.	.	.	8r	.	8r	.	.	.	.	.
.	.	.	.	.	16b'\JJ	.	16dd'\JJ	.	.	.	.	.	.	.	.	.	.	.	.	.	.	.	.	.	.	.	.	.	.	.
!	!	!	!	!	!	!	!	!	!	!	!	!	!	!	!	!	!	!	!	!	!	!	!LO:LB:g=original	!	!	!	!	!	!	!
=51	=51	=51	=51	=51	=51	=51	=51	=51	=51	=51	=51	=51	=51	=51	=51	=51	=51	=51	=51	=51	=51	=51	=51	=51	=51	=51	=51	=51	=51	=51
8GG'/	.	.	(4G/	.	8B/L	.	8g'/L	.	2r	.	.	.	2r	.	.	.	2r	.	.	2r	.	.	8B'/L	.	8g'\L	.	2r	.	2r	.
8r	.	.	.	.	8d/J	.	8a'/J	.	.	.	.	.	.	.	.	.	.	.	.	.	.	.	8d'/J	.	8a'\J	.	.	.	.	.
8G'\	.	.	4g\)	.	(16g\LL	.	(16b\LL	.	.	.	.	.	.	.	.	.	.	.	.	.	.	.	8g'\	.	8b'\	.	.	.	.	.
.	.	.	.	.	16b\)	.	16dd\)	.	.	.	.	.	.	.	.	.	.	.	.	.	.	.	.	.	.	.	.	.	.	.
8r	.	.	.	.	16b'\	.	16dd'\	.	.	.	.	.	.	.	.	.	.	.	.	.	.	.	8r	.	8r	.	.	.	.	.
.	.	.	.	.	16b'\JJ	.	16dd'\JJ	.	.	.	.	.	.	.	.	.	.	.	.	.	.	.	.	.	.	.	.	.	.	.
=52	=52	=52	=52	=52	=52	=52	=52	=52	=52	=52	=52	=52	=52	=52	=52	=52	=52	=52	=52	=52	=52	=52	=52	=52	=52	=52	=52	=52	=52	=52
!	!	!	!LO:TX:t=P:problem:f = for	!	!	!	!LO:TX:t=P:problem:f = forto	!	!	!	!	!	!	!	!	!	!	!	!	!	!	!	!	!	!	!	!	!	!	!
8GG'/	.	.	(4G/	f	8B/L	.	8g/L	f	4r	.	.	.	4r	.	.	.	8B/	mi-	.	8g\	mi-	.	8B'/L	.	8g'\L	.	4r	.	4r	.
8r	.	.	.	.	8d/J	.	8a/J	.	.	.	.	.	.	.	.	.	8d\	-se-	.	8a\	-se-	.	8d'/	.	8a'\	.	.	.	.	.
!	!	!	!	!	!	!LO:DY:a	!	!	!	!	!	!	!	!	!	!	!	!	!	!	!	!	!	!	!	!	!	!	!	!
8G'\	.	.	4g\)	.	16g\LL	f	16b'\LL	.	8r	.	.	.	8r	.	.	.	8g\	-re-	.	8b\	-re-	.	8g'/	.	8b'\	.	8r	.	8r	.
.	.	.	.	.	16g\	.	16b'\	.	.	.	.	.	.	.	.	.	.	.	.	.	.	.	.	.	.	.	.	.	.	.
!LO:TX:b:t=Org	!	!	!	!	!	!	!	!	!	!	!	!	!	!	!	!	!	!	!	!	!	!	!	!	!	!	!	!	!	!
8G'\	3	.	.	.	16b\	.	16gg'\	.	(8G\	au-	.	.	[8d\	au-	.	.	8g\	-re	.	8b\	-re	.	8g'/J	.	8b'\J	.	8b\	.	8gg\	.
.	.	.	.	.	16b\JJ	.	16gg'\JJ	.	.	.	.	.	.	.	.	.	.	.	.	.	.	.	.	.	.	.	.	.	.	.
!	!	!	!	!	!	!	!	!	!	!	!	!	!	!	!	!	!LO:LB:g=original	!	!	!	!	!	!	!	!	!	!	!	!	!
!	!	!	!	!	!	!	!	!	!	!	!	!	!	!	!	!	!	!	!	!	!	!	!	!	!LO:LB:g=original	!	!	!	!	!
!	!	!	!	!	!	!	!	!	!	!	!	!	!	!	!	!	!	!	!	!	!	!	!	!	!	!	!LO:LB:g=original	!	!	!
=53	=53	=53	=53	=53	=53	=53	=53	=53	=53	=53	=53	=53	=53	=53	=53	=53	=53	=53	=53	=53	=53	=53	=53	=53	=53	=53	=53	=53	=53	=53
!LO:TX:t=P:problem:f = for	!	!	!	!	!	!	!	!	!	!	!	!	!	!	!	!	!	!	!	!	!	!	!	!	!	!	!	!	!	!
8D/L	6 4	f	8d\L	.	16a/LL	.	16gg'\LL	.	8d\)	.	.	.	8d\]	.	.	.	4f#\	no-	.	4a\	no-	.	8g\L	.	4a\	.	4cc\	.	(8gg\L	.
.	.	.	.	.	16a/	.	16gg'\	.	.	.	.	.	.	.	.	.	.	.	.	.	.	.	.	.	.	.	.	.	.	.
8DD/J	5 3	.	8d\J	.	16a/	.	16ff#'\	.	8D/	-di	.	.	8d\	-di	.	.	.	.	.	.	.	.	8d\J	.	.	.	.	.	8ff#\J)	.
.	.	.	.	.	16a/JJ	.	16ff#'\JJ	.	.	.	.	.	.	.	.	.	.	.	.	.	.	.	.	.	.	.	.	.	.	.
8GG/	3	.	4d\	.	4G/ 4d 4b	.	4G/ 4d 4b 4gg	.	8G\	nos	.	.	8d\	nos	.	.	8g\	-bis	.	8b\	-bis	.	8g\	.	8b\	.	4b\	.	4gg\	.
!LO:TX:b:t=pedal	!	!	!	!	!	!	!	!	!	!	!	!	!	!	!	!	!	!	!	!	!	!	!	!	!	!	!	!	!	!
8r	.	.	.	.	.	.	.	.	8r	.	.	.	8r	.	.	.	8r	.	.	8r	.	.	8r	.	8r	.	.	.	.	.
!	!	!	!LO:LB:g=original	!	!	!	!	!	!	!	!	!	!	!	!	!	!	!	!	!	!	!	!	!	!	!	!	!	!	!
=54	=54	=54	=54	=54	=54	=54	=54	=54	=54	=54	=54	=54	=54	=54	=54	=54	=54	=54	=54	=54	=54	=54	=54	=54	=54	=54	=54	=54	=54	=54
!	!	!	!LO:TX:t=P:problem:p = pia	!	!LO:TX:t=P:problem:p = piano	!LO:DY:a	!LO:TX:t=P:problem:p = pia	!	!LO:TX:a:t=2	!	!	!	!LO:TX:a:t=2	!	!	!	!LO:TX:a:t=2	!	!	!LO:TX:a:t=2	!	!	!	!	!	!	!LO:TX:a:t=2	!	!LO:TX:a:t=2	!
8GG/	.	.	(4G/	p	8B/L	p	8g/L	p	2r	.	.	.	2r	.	.	.	2r	.	.	2r	.	.	2r	.	2r	.	2r	.	2r	.
8r	.	.	.	.	8d/J	.	8a/J	.	.	.	.	.	.	.	.	.	.	.	.	.	.	.	.	.	.	.	.	.	.	.
!LO:TX:t=P:problem:p = pia	!	!	!	!	!	!	!	!	!	!	!	!	!	!	!	!	!	!	!	!	!	!	!	!	!	!	!	!	!	!
8G\	.	p	4g\)	.	(16g/LL	.	(16b\LL	.	.	.	.	.	.	.	.	.	.	.	.	.	.	.	.	.	.	.	.	.	.	.
.	.	.	.	.	16b/)	.	16dd\)	.	.	.	.	.	.	.	.	.	.	.	.	.	.	.	.	.	.	.	.	.	.	.
8r	.	.	.	.	16b'/	.	16dd'\	.	.	.	.	.	.	.	.	.	.	.	.	.	.	.	.	.	.	.	.	.	.	.
.	.	.	.	.	16b'/JJ	.	16dd'\JJ	.	.	.	.	.	.	.	.	.	.	.	.	.	.	.	.	.	.	.	.	.	.	.
=55	=55	=55	=55	=55	=55	=55	=55	=55	=55	=55	=55	=55	=55	=55	=55	=55	=55	=55	=55	=55	=55	=55	=55	=55	=55	=55	=55	=55	=55	=55
8GG/	.	.	(4G/	.	8B/L	.	8g/L	.	2r	.	.	.	2r	.	.	.	2r	.	.	2r	.	.	2r	.	2r	.	2r	.	2r	.
8r	.	.	.	.	8d/J	.	8a/J	.	.	.	.	.	.	.	.	.	.	.	.	.	.	.	.	.	.	.	.	.	.	.
!	!	!	!	!	!	!	!LO:LB:g=original	!	!	!	!	!	!	!	!	!	!	!	!	!	!	!	!	!	!	!	!	!	!	!
8G\	.	.	4g\)	.	(16g/LL	.	(16b\LL	.	.	.	.	.	.	.	.	.	.	.	.	.	.	.	.	.	.	.	.	.	.	.
.	.	.	.	.	16b/)	.	16dd\)	.	.	.	.	.	.	.	.	.	.	.	.	.	.	.	.	.	.	.	.	.	.	.
8r	.	.	.	.	16b'/	.	16dd'\	.	.	.	.	.	.	.	.	.	.	.	.	.	.	.	.	.	.	.	.	.	.	.
.	.	.	.	.	16b'/JJ	.	16dd'\JJ	.	.	.	.	.	.	.	.	.	.	.	.	.	.	.	.	.	.	.	.	.	.	.
!LO:LB:g=original	!	!	!	!	!	!	!	!	!	!	!	!	!	!	!	!	!	!	!	!	!	!	!	!	!	!	!	!	!	!
!	!	!	!	!	!	!	!	!	!	!	!	!	!LO:LB:g=original	!	!	!	!	!	!	!	!	!	!	!	!	!	!	!	!	!
=56	=56	=56	=56	=56	=56	=56	=56	=56	=56	=56	=56	=56	=56	=56	=56	=56	=56	=56	=56	=56	=56	=56	=56	=56	=56	=56	=56	=56	=56	=56
!	!	!	!LO:TX:t=P:problem:f = forte	!	!	!	!	!	!	!	!	!	!	!	!	!	!	!	!	!	!	!	!	!	!	!	!	!	!	!
8GG/	.	.	4G/	f	8B/L	.	8g/L	.	4r	.	.	.	4r	.	.	.	8B/	mi-	.	8g\	mi-	.	8B/L	.	8g'\L	.	4r	.	4r	.
!LO:TX:b:t=Org	!	!	!	!	!	!	!	!	!	!	!	!	!	!	!	!	!	!	!	!	!	!	!	!	!	!	!	!	!	!
8r	.	.	.	.	8d/J	.	8a/J	.	.	.	.	.	.	.	.	.	8d\	-se-	.	8a\	-se-	.	8d/J	.	8a'\J	.	.	.	.	.
!LO:TX:t=P:problem:mixed beam	!	!	!LO:TX:t=P:problem:mixed beam	!	!	!LO:DY:a	!	!	!	!	!	!	!	!	!	!	!	!	!	!	!	!	!	!	!	!	!	!	!	!
16GG/LL	.	.	16G/LL	.	(16g/LL	f	16b\LL	.	8G\	X-	.	.	8B\	au-	.	.	8g\	-re-	.	8b\	-re-	.	8g'\L	.	8b'\L	.	4b\	.	4gg\	.
!LO:TX:b:t=Tutti	!	!	!	!	!	!	!	!	!	!	!	!	!	!	!	!	!	!	!	!	!	!	!	!	!	!	!	!	!	!
16G\	.	.	16g'\	.	16b/)	.	16gg\	.	.	.	.	.	.	.	.	.	.	.	.	.	.	.	.	.	.	.	.	.	.	.
16E\	.	.	16e'\	.	16b'/	.	16gg\	.	8G\	-te	.	.	8B\	-di	.	.	8g\	-re	.	8b\	-re	.	8g'\J	.	8b'\J	.	.	.	.	.
16BB\JJ	.	.	16B'\JJ	.	16b'/JJ	.	16gg\JJ	.	.	.	.	.	.	.	.	.	.	.	.	.	.	.	.	.	.	.	.	.	.	.
!	!	!	!	!	!	!	!	!	!	!	!	!	!	!	!	!	!	!	!	!LO:LB:g=original	!	!	!	!	!	!	!	!	!	!
=57	=57	=57	=57	=57	=57	=57	=57	=57	=57	=57	=57	=57	=57	=57	=57	=57	=57	=57	=57	=57	=57	=57	=57	=57	=57	=57	=57	=57	=57	=57
16C/LL	.	f	(16c/LL	.	16a/LL	.	16gg\LL	.	4C/	au-	.	.	4A\	nos	.	.	4g\	mi-	.	2cc\	no-	.	2d/	.	2a\	.	2cc\	.	4gg\	.
16BB/	.	.	16B/	.	16a/	.	16gg\	.	.	.	.	.	.	.	.	.	.	.	.	.	.	.	.	.	.	.	.	.	.	.
16C/	.	.	16c/)	.	16a/	.	16gg\	.	.	.	.	.	.	.	.	.	.	.	.	.	.	.	.	.	.	.	.	.	.	.
16AA/JJ	.	.	16A'/JJ	.	16a/JJ	.	16gg\JJ	.	.	.	.	.	.	.	.	.	.	.	.	.	.	.	.	.	.	.	.	.	.	.
!	!	!	!LO:TX:t=P:problem:mixed beam	!	!	!	!	!	!	!	!	!	!	!	!	!	!	!	!	!	!	!	!	!	!	!	!	!	!	!
*	*	*	*	*	*tremolo	*	*tremolo	*	*	*	*	*	*	*	*	*	*	*	*	*	*	*	*	*	*	*	*	*	*	*
16D/LL	.	.	(16d\LL	.	16a/LL	.	16ff#\LL	.	4E\	-di	.	.	4A\	X-	.	.	4f#\	-se-	.	.	.	.	.	.	.	.	.	.	4ff#\	.
16C#X/	.	.	16c#X\	.	16a/	.	16ff#\	.	.	.	.	.	.	.	.	.	.	.	.	.	.	.	.	.	.	.	.	.	.	.
16D/	.	.	16d\)	.	16a/	.	16ff#\	.	.	.	.	.	.	.	.	.	.	.	.	.	.	.	.	.	.	.	.	.	.	.
16DD/JJ	.	.	16D'\JJ	.	16a/JJ	.	16ff#\JJ	.	.	.	.	.	.	.	.	.	.	.	.	.	.	.	.	.	.	.	.	.	.	.
*	*	*	*	*	*	*	*Xtremolo	*	*	*	*	*	*	*	*	*	*	*	*	*	*	*	*	*	*	*	*	*	*	*
=58	=58	=58	=58	=58	=58	=58	=58	=58	=58	=58	=58	=58	=58	=58	=58	=58	=58	=58	=58	=58	=58	=58	=58	=58	=58	=58	=58	=58	=58	=58
16GG/LL	.	.	(16G/LL	.	16b\LL	.	16gg\LL	.	4G\	nos	.	.	4G/	-te	.	.	4g\	-re-	.	4b\	-bis	.	4g\	.	4b\	.	2b\	.	2gg\	.
16BB/	.	.	16B/	.	16b\	.	16gg\	.	.	.	.	.	.	.	.	.	.	.	.	.	.	.	.	.	.	.	.	.	.	.
16D/	.	.	16d/	.	16b\	.	16gg\	.	.	.	.	.	.	.	.	.	.	.	.	.	.	.	.	.	.	.	.	.	.	.
16G/JJ	.	.	16g/JJ)	.	16b\	.	16gg\JJ	.	.	.	.	.	.	.	.	.	.	.	.	.	.	.	.	.	.	.	.	.	.	.
*	*	*	*	*	*	*	*tremolo	*	*	*	*	*	*	*	*	*	*	*	*	*	*	*	*	*	*	*	*	*	*	*
16E\LL	.	.	(16e\LL	.	16b\	.	16gg\LL	.	4E\	ex-	.	.	4B\	ex-	.	.	4g\	-re	.	4b\	no-	.	8g\L	.	8b\L	.	.	.	.	.
16D#X\	.	.	16d#X\	.	16b\	.	16gg\	.	.	.	.	.	.	.	.	.	.	.	.	.	.	.	.	.	.	.	.	.	.	.
16E\	.	.	16e\)	.	16b\	.	16gg\	.	.	.	.	.	.	.	.	.	.	.	.	.	.	.	8g\J	.	8b\J	.	.	.	.	.
16BB\JJ	.	.	16B'\JJ	.	16b\JJ	.	16gg\JJ	.	.	.	.	.	.	.	.	.	.	.	.	.	.	.	.	.	.	.	.	.	.	.
=59	=59	=59	=59	=59	=59	=59	=59	=59	=59	=59	=59	=59	=59	=59	=59	=59	=59	=59	=59	=59	=59	=59	=59	=59	=59	=59	=59	=59	=59	=59
16Cn/LL	.	.	(16c/LL	.	16a/LL	.	16gg\LL	.	4C/	-au-	.	.	4A\	-au-	.	.	(4g\	no-	.	2cc\	.	.	2d/	.	2a\	.	2cc\	.	4gg\	.
16BB/	.	.	16B/	.	16a/	.	16gg\	.	.	.	.	.	.	.	.	.	.	.	.	.	.	.	.	.	.	.	.	.	.	.
16C/	.	.	16c/)	.	16a/	.	16gg\	.	.	.	.	.	.	.	.	.	.	.	.	.	.	.	.	.	.	.	.	.	.	.
16AA/JJ	.	.	16A'/JJ	.	16a/	.	16gg\JJ	.	.	.	.	.	.	.	.	.	.	.	.	.	.	.	.	.	.	.	.	.	.	.
!	!	!	!LO:TX:t=P:problem:mixed beam	!	!	!	!	!	!	!	!	!	!	!	!	!	!	!	!	!	!	!	!	!	!	!	!	!	!	!
16D/LL	.	.	(16dn\LL	.	16a/	.	16ff#\LL	.	4D/	-di	.	.	4A\	-di	.	.	4f#\)	.	.	.	.	.	.	.	.	.	.	.	4ff#\	.
16C#X/	.	.	16c#X\	.	16a/	.	16ff#\	.	.	.	.	.	.	.	.	.	.	.	.	.	.	.	.	.	.	.	.	.	.	.
16D/	.	.	16d\)	.	16a/	.	16ff#\	.	.	.	.	.	.	.	.	.	.	.	.	.	.	.	.	.	.	.	.	.	.	.
16DD/JJ	.	.	16D'\JJ	.	16a/JJ	.	16ff#\JJ	.	.	.	.	.	.	.	.	.	.	.	.	.	.	.	.	.	.	.	.	.	.	.
*	*	*	*	*	*	*	*Xtremolo	*	*	*	*	*	*	*	*	*	*	*	*	*	*	*	*	*	*	*	*	*	*	*
*	*	*	*	*	*Xtremolo	*	*	*	*	*	*	*	*	*	*	*	*	*	*	*	*	*	*	*	*	*	*	*	*	*
!	!	!	!	!	!LO:LB:g=original	!	!	!	!	!	!	!	!	!	!	!	!	!	!	!	!	!	!	!	!	!	!	!	!	!
=60	=60	=60	=60	=60	=60	=60	=60	=60	=60	=60	=60	=60	=60	=60	=60	=60	=60	=60	=60	=60	=60	=60	=60	=60	=60	=60	=60	=60	=60	=60
8GG/	.	.	(32G/LLL	.	(32G/LLL	.	8G/ 8d 8b 8gg	.	4G\	nos	.	.	4B\	nos	.	.	4g\	-bis	.	4b\	-bis	.	8g\	.	8b\	.	8b\	.	8gg\	.
.	.	.	32A/	.	32A/	.	.	.	.	.	.	.	.	.	.	.	.	.	.	.	.	.	.	.	.	.	.	.	.	.
.	.	.	32B/	.	32B/	.	.	.	.	.	.	.	.	.	.	.	.	.	.	.	.	.	.	.	.	.	.	.	.	.
.	.	.	32cn/JJJ)	.	32c/JJJ	.	.	.	.	.	.	.	.	.	.	.	.	.	.	.	.	.	.	.	.	.	.	.	.	.
8r	.	.	(32d\LLL	.	32d/LLL	.	8r	.	.	.	.	.	.	.	.	.	.	.	.	.	.	.	8r	.	8r	.	8r	.	8r	.
.	.	.	32e\	.	32e/	.	.	.	.	.	.	.	.	.	.	.	.	.	.	.	.	.	.	.	.	.	.	.	.	.
.	.	.	32f#\	.	32f#/	.	.	.	.	.	.	.	.	.	.	.	.	.	.	.	.	.	.	.	.	.	.	.	.	.
.	.	.	32g\JJJ)	.	32g/JJJ)	.	.	.	.	.	.	.	.	.	.	.	.	.	.	.	.	.	.	.	.	.	.	.	.	.
!	!	!	!LO:LB:g=original	!	!	!	!	!	!	!	!	!	!	!	!	!	!	!	!	!	!	!	!	!	!	!	!	!	!	!
8D\	.	.	(32D/LLL	.	(32d/LLL	.	8d/ 8a 8ff#	.	4r	.	.	.	4r	.	.	.	4r	.	.	4r	.	.	8d/	.	8a\	.	8cc\	.	8ff#\	.
.	.	.	32E/	.	32e/	.	.	.	.	.	.	.	.	.	.	.	.	.	.	.	.	.	.	.	.	.	.	.	.	.
.	.	.	32F#/	.	32f#/	.	.	.	.	.	.	.	.	.	.	.	.	.	.	.	.	.	.	.	.	.	.	.	.	.
.	.	.	32G/JJJ	.	32g/JJJ	.	.	.	.	.	.	.	.	.	.	.	.	.	.	.	.	.	.	.	.	.	.	.	.	.
8r	.	.	32A/LLL	.	32a/LLL	.	8r	.	.	.	.	.	.	.	.	.	.	.	.	.	.	.	8r	.	8r	.	8r	.	8r	.
.	.	.	32B/	.	32b/	.	.	.	.	.	.	.	.	.	.	.	.	.	.	.	.	.	.	.	.	.	.	.	.	.
.	.	.	32c/	.	32cc/	.	.	.	.	.	.	.	.	.	.	.	.	.	.	.	.	.	.	.	.	.	.	.	.	.
.	.	.	32d/JJJ)	.	32dd/JJJ)	.	.	.	.	.	.	.	.	.	.	.	.	.	.	.	.	.	.	.	.	.	.	.	.	.
=61	=61	=61	=61	=61	=61	=61	=61	=61	=61	=61	=61	=61	=61	=61	=61	=61	=61	=61	=61	=61	=61	=61	=61	=61	=61	=61	=61	=61	=61	=61
!	!	!	!	!	!	!	!	!	!LO:TX:a:t=4	!	!	!	!LO:TX:a:t=4	!	!	!	!LO:TX:a:t=4	!	!	!LO:TX:a:t=4	!	!	!	!	!	!	!	!	!	!
8G\	.	.	(32G/LLL	.	(32G/LLL	.	8G/ 8d 8b 8gg	.	2r	.	.	.	2r	.	.	.	2r	.	.	2r	.	.	8g\	.	8b\	.	8b\	.	8gg\	.
.	.	.	32A/	.	32A/	.	.	.	.	.	.	.	.	.	.	.	.	.	.	.	.	.	.	.	.	.	.	.	.	.
.	.	.	32B/	.	32B/	.	.	.	.	.	.	.	.	.	.	.	.	.	.	.	.	.	.	.	.	.	.	.	.	.
.	.	.	32c/JJJ)	.	32c/JJJ	.	.	.	.	.	.	.	.	.	.	.	.	.	.	.	.	.	.	.	.	.	.	.	.	.
8r	.	.	(32d\LLL	.	32d/LLL	.	8r	.	.	.	.	.	.	.	.	.	.	.	.	.	.	.	8r	.	8r	.	8r	.	8r	.
.	.	.	32e\	.	32e/	.	.	.	.	.	.	.	.	.	.	.	.	.	.	.	.	.	.	.	.	.	.	.	.	.
.	.	.	32f#\	.	32f#/	.	.	.	.	.	.	.	.	.	.	.	.	.	.	.	.	.	.	.	.	.	.	.	.	.
.	.	.	32g\JJJ)	.	32g/JJJ)	.	.	.	.	.	.	.	.	.	.	.	.	.	.	.	.	.	.	.	.	.	.	.	.	.
8D\	.	.	(32D/LLL	.	(32d/LLL	.	8d/ 8a 8ff#	.	.	.	.	.	.	.	.	.	.	.	.	.	.	.	8d/	.	8a\	.	8cc\	.	8ff#\	.
.	.	.	32E/	.	32e/	.	.	.	.	.	.	.	.	.	.	.	.	.	.	.	.	.	.	.	.	.	.	.	.	.
.	.	.	32F#/	.	32f#/	.	.	.	.	.	.	.	.	.	.	.	.	.	.	.	.	.	.	.	.	.	.	.	.	.
.	.	.	32G/JJJ	.	32g/JJJ	.	.	.	.	.	.	.	.	.	.	.	.	.	.	.	.	.	.	.	.	.	.	.	.	.
8r	.	.	32A/LLL	.	32a/LLL	.	8r	.	.	.	.	.	.	.	.	.	.	.	.	.	.	.	8r	.	8r	.	8r	.	8r	.
.	.	.	32B/	.	32b/	.	.	.	.	.	.	.	.	.	.	.	.	.	.	.	.	.	.	.	.	.	.	.	.	.
.	.	.	32c/	.	32cc/	.	.	.	.	.	.	.	.	.	.	.	.	.	.	.	.	.	.	.	.	.	.	.	.	.
.	.	.	32d/JJJ)	.	32dd/JJJ)	.	.	.	.	.	.	.	.	.	.	.	.	.	.	.	.	.	.	.	.	.	.	.	.	.
!LO:LB:g=original	!	!	!	!	!	!	!	!	!	!	!	!	!	!	!	!	!	!	!	!	!	!	!	!	!	!	!	!	!	!
=62	=62	=62	=62	=62	=62	=62	=62	=62	=62	=62	=62	=62	=62	=62	=62	=62	=62	=62	=62	=62	=62	=62	=62	=62	=62	=62	=62	=62	=62	=62
!	!	!	!	!	!	!	!	!	!	!	!	!	!	!	!	!	!	!	!	!	!	!	!LO:TX:t=P:problem:brak t. 62	!	!	!	!	!	!	!
8GG/	.	.	(32G/LLL	.	(32G/LLL	.	8G/ 8d 8b 8gg	.	2r	.	.	.	2r	.	.	.	2r	.	.	2r	.	.	2ryy	.	8b\	.	8b\	.	8gg\	.
.	.	.	32A/	.	32A/	.	.	.	.	.	.	.	.	.	.	.	.	.	.	.	.	.	.	.	.	.	.	.	.	.
.	.	.	32B/	.	32B/	.	.	.	.	.	.	.	.	.	.	.	.	.	.	.	.	.	.	.	.	.	.	.	.	.
.	.	.	32c/JJJ)	.	32c/JJJ	.	.	.	.	.	.	.	.	.	.	.	.	.	.	.	.	.	.	.	.	.	.	.	.	.
8r	.	.	(32d\LLL	.	32d/LLL	.	8r	.	.	.	.	.	.	.	.	.	.	.	.	.	.	.	.	.	8r	.	8r	.	8r	.
.	.	.	32e\	.	32e/	.	.	.	.	.	.	.	.	.	.	.	.	.	.	.	.	.	.	.	.	.	.	.	.	.
.	.	.	32f#\	.	32f#/	.	.	.	.	.	.	.	.	.	.	.	.	.	.	.	.	.	.	.	.	.	.	.	.	.
.	.	.	32g\JJJ)	.	32g/JJJ)	.	.	.	.	.	.	.	.	.	.	.	.	.	.	.	.	.	.	.	.	.	.	.	.	.
8D\	.	.	(32D/LLL	.	(32d/LLL	.	8d/ 8a 8ff#	.	.	.	.	.	.	.	.	.	.	.	.	.	.	.	.	.	8a\	.	8cc\	.	8ff#\	.
.	.	.	32E/	.	32e/	.	.	.	.	.	.	.	.	.	.	.	.	.	.	.	.	.	.	.	.	.	.	.	.	.
.	.	.	32F#/	.	32f#/	.	.	.	.	.	.	.	.	.	.	.	.	.	.	.	.	.	.	.	.	.	.	.	.	.
.	.	.	32G/JJJ	.	32g/JJJ	.	.	.	.	.	.	.	.	.	.	.	.	.	.	.	.	.	.	.	.	.	.	.	.	.
8r	.	.	32A/LLL	.	32a/LLL	.	8r	.	.	.	.	.	.	.	.	.	.	.	.	.	.	.	.	.	8r	.	8r	.	8r	.
.	.	.	32B/	.	32b/	.	.	.	.	.	.	.	.	.	.	.	.	.	.	.	.	.	.	.	.	.	.	.	.	.
.	.	.	32c/	.	32cc/	.	.	.	.	.	.	.	.	.	.	.	.	.	.	.	.	.	.	.	.	.	.	.	.	.
.	.	.	32d/JJJ)	.	32dd/JJJ)	.	.	.	.	.	.	.	.	.	.	.	.	.	.	.	.	.	.	.	.	.	.	.	.	.
=63	=63	=63	=63	=63	=63	=63	=63	=63	=63	=63	=63	=63	=63	=63	=63	=63	=63	=63	=63	=63	=63	=63	=63	=63	=63	=63	=63	=63	=63	=63
!LO:TX:b:t=Pedal	!	!	!	!	!	!	!	!	!	!	!	!	!	!	!	!	!	!	!	!	!	!	!	!	!	!	!	!	!	!
4G\	.	.	4G/ 4d	pp	4G/ 4d 4b	.	4G/ 4d 4b 4gg	.	2r	.	.	.	2r	.	.	.	2r	.	.	2r	.	.	4g\	.	4b\	.	4b\	.	4gg\	.
!	!	!	!	!	!LO:TX:t=P:problem:pp = ppimo	!LO:DY:a	!LO:TX:t=P:problem:pp = ppmo	!	!	!	!	!	!	!	!	!	!	!	!	!	!	!	!	!LO:DY:a	!	!LO:DY:a	!	!	!	!
8GG'/L	.	.	8d'\L	.	8B/L	pp	8g/L	pp	.	.	.	.	.	.	.	.	.	.	.	.	.	.	8G/L	pp	8d/L	pp	4r	.	4r	.
8GG'/J	.	.	8d'\J	.	8B/J	.	8g/J	.	.	.	.	.	.	.	.	.	.	.	.	.	.	.	8G/J	.	8d/J	.	.	.	.	.
=64	=64	=64	=64	=64	=64	=64	=64	=64	=64	=64	=64	=64	=64	=64	=64	=64	=64	=64	=64	=64	=64	=64	=64	=64	=64	=64	=64	=64	=64	=64
!LO:TX:b:t=Fine	!	!	!LO:TX:b:t=Fine	!	!LO:TX:b:t=il Fine.	!	!LO:TX:b:t=il Fine	!	!LO:TX:a:t=il Fine	!	!	!	!LO:TX:a:t=Il Fine	!	!	!	!LO:TX:b:t=Fine	!	!	!LO:TX:b:t=Fine	!	!	!	!	!	!	!	!	!	!
2GG'/	.	.	2d'\	.	2B/	.	2g/	.	2r	.	.	.	2r	.	.	.	2r	.	.	2r	.	.	2G/	.	2d/	.	2r	.	2r	.
==	==	==	==	==	==	==	==	==	==	==	==	==	==	==	==	==	==	==	==	==	==	==	==	==	==	==	==	==	==	==
*-	*-	*-	*-	*-	*-	*-	*-	*-	*-	*-	*-	*-	*-	*-	*-	*-	*-	*-	*-	*-	*-	*-	*-	*-	*-	*-	*-	*-	*-	*-
!!!system-decoration: [(s1,s2)][(s3,s4)][(s5,s6,s7,s8)][(s9,s10,s11)][(s12)]
!!!ENC: Marcin Jachim
!!!END: 2020-10-19
!!!ENC: Urszula Świątek
!!!END: 2022-06-25
